; generated by Slic3r 1.2.9 on 2016-06-08 at 16:19:42

; external perimeters extrusion width = 0.40mm
; perimeters extrusion width = 0.40mm
; infill extrusion width = 0.40mm
; solid infill extrusion width = 0.40mm
; top infill extrusion width = 0.40mm
; support material extrusion width = 0.40mm

M107
M190 S60 ; set bed temperature
M104 S215 ; set temperature
G28 ; home all axes\
M203 X192 Y208 Z3 ; Speed limits to minimize skipped steps when moving really fast courtesy of forum.lulzbot.com user 1013
G1 Z5 F5000 ; lift nozzle

M109 S215 ; wait for temperature to be reached
G21 ; set units to millimeters
G90 ; use absolute coordinates
M82 ; use absolute distances for extrusion
G92 E0
G1 Z0.300 F6000.000
G1 E-1.00000 F1500.00000
G92 E0
G1 X150.745 Y44.167 F6000.000
G1 E1.00000 F1500.00000
G1 X151.893 Y42.043 E1.03440 F1440.000
G1 X153.670 Y40.406 E1.06881
G1 X155.881 Y39.434 E1.10321
G1 X157.690 Y39.207 E1.12919
G1 X224.690 Y39.207 E2.08354
G1 X227.072 Y39.605 E2.11795
G1 X229.197 Y40.753 E2.15235 F1440.000
G1 X230.834 Y42.529 E2.18676
G1 X231.806 Y44.741 E2.22116
G1 X232.032 Y46.550 E2.24713
G1 X232.032 Y67.550 E2.54626
G1 X231.914 Y68.863 E2.56504
G1 X225.914 Y101.863 E3.04281
G1 X225.097 Y104.136 E3.07721
G1 X223.586 Y106.021 E3.11162
G1 X221.546 Y107.314 E3.14602
G1 X218.690 Y107.892 E3.18753
G1 X157.690 Y107.892 E4.05642
G1 X155.307 Y107.495 E4.09083
G1 X153.183 Y106.346 E4.12523
G1 X151.546 Y104.570 E4.15964
G1 X150.574 Y102.359 E4.19404
G1 X150.347 Y100.550 E4.22001
G1 X150.347 Y46.550 E4.98920
G1 X150.735 Y44.226 E5.02275
G1 X151.070 Y44.284 F6000.000
G1 X151.080 Y44.224 E5.02361 F1440.000
G1 X152.227 Y42.162 E5.05721
G1 X153.992 Y40.598 E5.09081
G1 X156.177 Y39.708 E5.12442
G1 X157.690 Y39.543 E5.14609
G1 X224.690 Y39.543 E6.10045
G1 X227.015 Y39.940 E6.13405
G1 X229.077 Y41.086 E6.16766 F1440.000
G1 X230.642 Y42.852 E6.20126
G1 X231.531 Y45.037 E6.23486
G1 X231.697 Y46.550 E6.25654
G1 X231.697 Y67.550 E6.55567
G1 X231.584 Y68.803 E6.57359
G1 X225.584 Y101.803 E7.05136
G1 X224.777 Y104.020 E7.08496
G1 X223.280 Y105.844 E7.11856
G1 X221.263 Y107.067 E7.15217
G1 X218.690 Y107.557 E7.18948
G1 X157.690 Y107.557 E8.05837
G1 X155.364 Y107.159 E8.09197
G1 X153.303 Y106.013 E8.12558
G1 X151.738 Y104.247 E8.15918
G1 X150.848 Y102.062 E8.19278
G1 X150.683 Y100.550 E8.21446
G1 X150.683 Y46.550 E8.98364
G1 X151.060 Y44.343 E9.01553
G1 X151.395 Y44.402 F6000.000
G1 X151.416 Y44.283 E9.01725 F1440.000
G1 X152.559 Y42.286 E9.05003
G1 X154.314 Y40.796 E9.08282
G1 X156.470 Y39.991 E9.11560
G1 X157.690 Y39.879 E9.13305
G1 X224.690 Y39.879 E10.08741
G1 X226.957 Y40.276 E10.12019
G1 X228.954 Y41.419 E10.15297 F1440.000
G1 X230.444 Y43.174 E10.18576
G1 X231.249 Y45.330 E10.21854
G1 X231.361 Y46.550 E10.23599
G1 X231.361 Y67.550 E10.53512
G1 X231.253 Y68.743 E10.55218
G1 X225.253 Y101.743 E11.02995
G1 X224.457 Y103.903 E11.06273
G1 X222.975 Y105.663 E11.09551
G1 X220.982 Y106.815 E11.12830
G1 X218.690 Y107.221 E11.16146
G1 X157.690 Y107.221 E12.03035
G1 X155.423 Y106.824 E12.06313
G1 X153.426 Y105.680 E12.09592
G1 X151.936 Y103.926 E12.12870
G1 X151.131 Y101.770 E12.16148
G1 X151.019 Y100.550 E12.17893
G1 X151.019 Y46.550 E12.94812
G1 X151.384 Y44.461 E12.97833
G1 X151.719 Y44.521 F6000.000
G1 X151.751 Y44.343 E12.98090 F1440.000
G1 X152.892 Y42.412 E13.01285
G1 X154.634 Y41.000 E13.04479
G1 X157.690 Y40.214 E13.08973
G1 X224.690 Y40.214 E14.04409
G1 X226.897 Y40.611 E14.07603
G1 X228.827 Y41.752 E14.10797 F1440.000
G1 X230.240 Y43.494 E14.13992
G1 X231.025 Y46.550 E14.18486
G1 X231.025 Y67.550 E14.48399
G1 X230.923 Y68.683 E14.50020
G1 X224.923 Y101.683 E14.97796
G1 X224.138 Y103.784 E15.00990
G1 X222.670 Y105.479 E15.04184
G1 X220.704 Y106.557 E15.07379
G1 X218.690 Y106.885 E15.10285
G1 X157.690 Y106.885 E15.97175
G1 X155.483 Y106.489 E16.00369
G1 X153.552 Y105.348 E16.03563
G1 X152.140 Y103.606 E16.06757
G1 X151.354 Y100.550 E16.11252
G1 X151.354 Y46.550 E16.88170
G1 X151.708 Y44.580 E16.91021
G1 E15.91021 F1500.00000
G92 E0
G1 X186.147 Y66.007 F6000.000
G1 E1.00000 F1500.00000
G1 X209.232 Y66.007 E1.32883 F960.000
G1 X209.232 Y94.092 E1.72887
G1 X186.147 Y94.092 E2.05770
G1 X186.147 Y66.067 E2.45689
G1 X186.483 Y66.343 F6000.000
G1 X208.897 Y66.343 E2.77615 F960.000
G1 X208.897 Y93.757 E3.16664
G1 X186.483 Y93.757 E3.48590
G1 X186.483 Y66.403 E3.87553
G1 X186.819 Y66.679 F6000.000
G1 X208.561 Y66.679 E4.18523 F960.000
G1 X208.561 Y93.421 E4.56616
G1 X186.819 Y93.421 E4.87586
G1 X186.819 Y66.739 E5.25593
G1 X187.154 Y67.014 F6000.000
G1 X208.225 Y67.014 E5.55607 F960.000
G1 X208.225 Y93.085 E5.92743
G1 X187.154 Y93.085 E6.22757
G1 X187.154 Y67.074 E6.59808
G1 X187.490 Y67.350 F6000.000
G1 X207.890 Y67.350 E6.88866 F480.000
G1 X207.890 Y92.750 E7.25046
G1 X187.490 Y92.750 E7.54104
G1 X187.490 Y67.410 E7.90199
G1 X187.490 Y66.950 F6000.000
G1 X184.232 Y67.410 F6000.000
G1 X184.232 Y83.092 E8.12537 F960.000
G1 X169.147 Y83.092 E8.34024
G1 X169.147 Y58.007 E8.69756
G1 X184.232 Y58.007 E8.91243 F960.000
G1 X184.232 Y67.350 E9.04550
G1 X183.897 Y67.350 F6000.000
G1 X183.897 Y82.757 E9.26496 F960.000
G1 X169.483 Y82.757 E9.47027
G1 X169.483 Y58.343 E9.81802
G1 X183.897 Y58.343 E10.02334 F960.000
G1 X183.897 Y67.290 E10.15078
G1 X183.561 Y67.290 F6000.000
G1 X183.561 Y82.421 E10.36631 F960.000
G1 X169.819 Y82.421 E10.56206
G1 X169.819 Y58.679 E10.90025
G1 X183.561 Y58.679 E11.09600 F960.000
G1 X183.561 Y67.230 E11.21780
G1 X183.225 Y67.230 F6000.000
G1 X183.225 Y82.085 E11.42941 F960.000
G1 X170.154 Y82.085 E11.61560
G1 X170.154 Y59.014 E11.94423
G1 X183.225 Y59.014 E12.13041 F960.000
G1 X183.225 Y67.170 E12.24658
G1 X182.890 Y67.170 F6000.000
G1 X182.890 Y81.750 E12.45426 F480.000
G1 X170.490 Y81.750 E12.63089
G1 X170.490 Y59.350 E12.94996
G1 X182.890 Y59.350 E13.12659 F480.000
G1 X182.890 Y67.110 E13.23712
G1 X183.236 Y67.370 F6000.000
G1 E12.23712 F1500.00000
G92 E0
G1 X169.690 Y58.550 F6000.000
G1 X164.190 Y58.550 F6000.000
G1 X165.133 Y53.993 F6000.000
G1 X158.690 Y47.550 F6000.000
G1 X164.059 Y48.092 F6000.000
G1 E1.00000 F1500.00000
G1 X223.147 Y48.092 E1.84166 F960.000
G1 X223.147 Y66.007 E2.09684
G1 X218.147 Y66.007 E2.16806 F960.000
G1 X218.147 Y91.007 E2.52416
G1 X217.147 Y91.007 E2.53841
G1 X217.147 Y99.007 E2.65236
G1 X174.232 Y99.007 E3.26365
G1 X174.232 Y94.007 E3.33487
G1 X166.147 Y94.007 E3.45003
G1 X166.147 Y99.007 E3.52125
G1 X159.232 Y99.007 E3.61975
G1 X159.232 Y48.092 E4.34499
G1 X163.999 Y48.092 E4.41290
G1 X163.999 Y47.757 F6000.000
G1 X223.483 Y47.757 E5.26019 F960.000
G1 X223.483 Y66.343 E5.52493
G1 X218.483 Y66.343 E5.59615 F960.000
G1 X218.483 Y91.343 E5.95226
G1 X217.483 Y91.343 E5.96650
G1 X217.483 Y99.343 E6.08045
G1 X173.897 Y99.343 E6.70130
G1 X173.897 Y94.343 E6.77252
G1 X166.483 Y94.343 E6.87813
G1 X166.483 Y99.343 E6.94935
G1 X158.897 Y99.343 E7.05741
G1 X158.897 Y47.757 E7.79221
G1 X163.939 Y47.757 E7.86404
G1 X163.939 Y47.421 F6000.000
G1 X223.819 Y47.421 E8.71697 F960.000
G1 X223.819 Y66.679 E8.99127
G1 X218.819 Y66.679 E9.06249 F960.000
G1 X218.819 Y91.679 E9.41860
G1 X217.819 Y91.679 E9.43284
G1 X217.819 Y99.679 E9.54679
G1 X173.561 Y99.679 E10.17720
G1 X173.561 Y94.679 E10.24842
G1 X166.819 Y94.679 E10.34446
G1 X166.819 Y99.679 E10.41569
G1 X158.561 Y99.679 E10.53331
G1 X158.561 Y47.421 E11.27767
G1 X163.879 Y47.421 E11.35342
G1 X163.879 Y47.085 F6000.000
G1 X224.154 Y47.085 E12.21199 F960.000
G1 X224.154 Y67.014 E12.49585
G1 X219.154 Y67.014 E12.56708 F960.000
G1 X219.154 Y92.014 E12.92318
G1 X218.154 Y92.014 E12.93742
G1 X218.154 Y100.014 E13.05138
G1 X173.225 Y100.014 E13.69135
G1 X173.225 Y95.014 E13.76257
G1 X167.154 Y95.014 E13.84905
G1 X167.154 Y100.014 E13.92027
G1 X158.225 Y100.014 E14.04745
G1 X158.225 Y47.085 E14.80137
G1 X163.819 Y47.085 E14.88106
G1 X163.819 Y46.750 F6000.000
G1 X224.490 Y46.750 E15.74525 F480.000
G1 X224.490 Y67.350 E16.03868
G1 X219.490 Y67.350 E16.10990 F480.000
G1 X219.490 Y92.350 E16.46601
G1 X218.490 Y92.350 E16.48025
G1 X218.490 Y100.350 E16.59420
G1 X172.890 Y100.350 E17.24374
G1 X172.890 Y95.350 E17.31496
G1 X167.490 Y95.350 E17.39187
G1 X167.490 Y100.350 E17.46310
G1 X157.890 Y100.350 E17.59984
G1 X157.890 Y46.750 E18.36332
G1 X163.759 Y46.750 E18.44693
G1 X164.019 Y47.096 F6000.000
G1 X183.799 Y57.830 F6000.000
G1 X174.239 Y48.270 E18.64006 F720.000
G1 X173.763 Y48.270 E18.64686
G1 X183.323 Y57.830 E18.83999
G1 X182.847 Y57.830 E18.84679
G1 X173.287 Y48.270 E19.03992
G1 X172.811 Y48.270 E19.04671
G1 X182.372 Y57.830 E19.23984
G1 X181.896 Y57.830 E19.24664
G1 X172.335 Y48.270 E19.43977
G1 X171.859 Y48.270 E19.44657
G1 X181.420 Y57.830 E19.63970
G1 X180.944 Y57.830 E19.64650
G1 X171.383 Y48.270 E19.83963
G1 X170.907 Y48.270 E19.84642
G1 X180.468 Y57.830 E20.03955
G1 X179.992 Y57.830 E20.04635
G1 X170.431 Y48.270 E20.23948
G1 X169.955 Y48.270 E20.24628
G1 X179.516 Y57.830 E20.43941
G1 X179.040 Y57.830 E20.44621
G1 X169.479 Y48.270 E20.63934
G1 X169.003 Y48.270 E20.64613
G1 X178.564 Y57.830 E20.83926
G1 X178.088 Y57.830 E20.84606
G1 X168.527 Y48.270 E21.03919
G1 X168.051 Y48.270 E21.04599
G1 X177.612 Y57.830 E21.23912
G1 X177.136 Y57.830 E21.24592
G1 X167.575 Y48.270 E21.43904
G1 X167.099 Y48.270 E21.44584
G1 X176.660 Y57.830 E21.63897
G1 X176.184 Y57.830 E21.64577
G1 X166.623 Y48.270 E21.83890
G1 X166.147 Y48.270 E21.84570
G1 X175.708 Y57.830 E22.03883
G1 X175.232 Y57.830 E22.04563
G1 X165.672 Y48.270 E22.23875
G1 X165.196 Y48.270 E22.24555
G1 X174.756 Y57.830 E22.43868
G1 X174.280 Y57.830 E22.44548
G1 X164.720 Y48.270 E22.63861
G1 X164.244 Y48.270 E22.64541
G1 X173.804 Y57.830 E22.83854
G1 X173.328 Y57.830 E22.84534
G1 X163.768 Y48.270 E23.03846
G1 X163.292 Y48.270 E23.04526
G1 X172.852 Y57.830 E23.23839
G1 X172.376 Y57.830 E23.24519
G1 X162.816 Y48.270 E23.43832
G1 X162.340 Y48.270 E23.44512
G1 X171.900 Y57.830 E23.63825
G1 X171.424 Y57.830 E23.64505
G1 X161.864 Y48.270 E23.83817
G1 X161.388 Y48.270 E23.84497
G1 X170.948 Y57.830 E24.03810
G1 X170.472 Y57.830 E24.04490
G1 X160.912 Y48.270 E24.23803
G1 X160.436 Y48.270 E24.24483
G1 X169.996 Y57.830 E24.43796
G1 X169.520 Y57.830 E24.44476
G1 X159.960 Y48.270 E24.63788
G1 X159.484 Y48.270 E24.64468
G1 X169.044 Y57.830 E24.83781
G1 X168.970 Y58.232 E24.84365
G1 X159.410 Y48.671 E25.03677
G1 X159.410 Y49.147 E25.04357
G1 X168.970 Y58.708 E25.23670
G1 X168.970 Y59.184 E25.24350
G1 X159.410 Y49.623 E25.43663
G1 X159.410 Y50.099 E25.44343
G1 X168.970 Y59.660 E25.63656
G1 X168.970 Y60.135 E25.64335
G1 X159.410 Y50.575 E25.83648
G1 X159.410 Y51.051 E25.84328
G1 X168.970 Y60.611 E26.03641
G1 X168.970 Y61.087 E26.04321
G1 X159.410 Y51.527 E26.23634
G1 X159.410 Y52.003 E26.24314
G1 X168.970 Y61.563 E26.43627
G1 X168.970 Y62.039 E26.44306
G1 X159.410 Y52.479 E26.63619
G1 X159.410 Y52.955 E26.64299
G1 X168.970 Y62.515 E26.83612
G1 X168.970 Y62.991 E26.84292
G1 X159.410 Y53.431 E27.03605
G1 X159.410 Y53.907 E27.04285
G1 X168.970 Y63.467 E27.23598
G1 X168.970 Y63.943 E27.24277
G1 X159.410 Y54.383 E27.43590
G1 X159.410 Y54.859 E27.44270
G1 X168.970 Y64.419 E27.63583
G1 X168.970 Y64.895 E27.64263
G1 X159.410 Y55.335 E27.83576
G1 X159.410 Y55.811 E27.84256
G1 X168.970 Y65.371 E28.03569
G1 X168.970 Y65.847 E28.04248
G1 X159.410 Y56.287 E28.23561
G1 X159.410 Y56.763 E28.24241
G1 X168.970 Y66.323 E28.43554
G1 X168.970 Y66.799 E28.44234
G1 X159.410 Y57.239 E28.63547
G1 X159.410 Y57.715 E28.64227
G1 X168.970 Y67.275 E28.83539
G1 X168.970 Y67.751 E28.84219
G1 X159.410 Y58.190 E29.03532
G1 X159.410 Y58.666 E29.04212
G1 X168.970 Y68.227 E29.23525
G1 X168.970 Y68.703 E29.24205
G1 X159.410 Y59.142 E29.43518
G1 X159.410 Y59.618 E29.44198
G1 X168.970 Y69.179 E29.63510
G1 X168.970 Y69.655 E29.64190
G1 X159.410 Y60.094 E29.83503
G1 X159.410 Y60.570 E29.84183
G1 X168.970 Y70.131 E30.03496
G1 X168.970 Y70.607 E30.04176
G1 X159.410 Y61.046 E30.23489
G1 X159.410 Y61.522 E30.24169
G1 X168.970 Y71.083 E30.43481
G1 X168.970 Y71.559 E30.44161
G1 X159.410 Y61.998 E30.63474
G1 X159.410 Y62.474 E30.64154
G1 X168.970 Y72.035 E30.83467
G1 X168.970 Y72.511 E30.84147
G1 X159.410 Y62.950 E31.03460
G1 X159.410 Y63.426 E31.04140
G1 X168.970 Y72.987 E31.23452
G1 X168.970 Y73.463 E31.24132
G1 X159.410 Y63.902 E31.43445
G1 X159.410 Y64.378 E31.44125
G1 X168.970 Y73.939 E31.63438
G1 X168.970 Y74.415 E31.64118
G1 X159.410 Y64.854 E31.83431
G1 X159.410 Y65.330 E31.84110
G1 X168.970 Y74.890 E32.03423
G1 X168.970 Y75.366 E32.04103
G1 X159.410 Y65.806 E32.23416
G1 X159.410 Y66.282 E32.24096
G1 X168.970 Y75.842 E32.43409
G1 X168.970 Y76.318 E32.44089
G1 X159.410 Y66.758 E32.63402
G1 X159.410 Y67.234 E32.64081
G1 X168.970 Y76.794 E32.83394
G1 X168.970 Y77.270 E32.84074
G1 X159.410 Y67.710 E33.03387
G1 X159.410 Y68.186 E33.04067
G1 X168.970 Y77.746 E33.23380
G1 X168.970 Y78.222 E33.24060
G1 X159.410 Y68.662 E33.43373
G1 X159.410 Y69.138 E33.44052
G1 X168.970 Y78.698 E33.63365
G1 X168.970 Y79.174 E33.64045
G1 X159.410 Y69.614 E33.83358
G1 X159.410 Y70.090 E33.84038
G1 X168.970 Y79.650 E34.03351
G1 X168.970 Y80.126 E34.04031
G1 X159.410 Y70.566 E34.23343
G1 X159.410 Y71.042 E34.24023
G1 X168.970 Y80.602 E34.43336
G1 X168.970 Y81.078 E34.44016
G1 X159.410 Y71.518 E34.63329
G1 X159.410 Y71.994 E34.64009
G1 X168.970 Y81.554 E34.83322
G1 X168.970 Y82.030 E34.84002
G1 X159.410 Y72.470 E35.03314
G1 X159.410 Y72.945 E35.03994
G1 X168.970 Y82.506 E35.23307
G1 X168.970 Y82.982 F6000.000
G1 X159.410 Y73.421 E35.42620 F720.000
G1 X159.410 Y73.897 E35.43300
G1 X184.342 Y98.830 E35.93665
G1 X183.866 Y98.830 E35.94345
G1 X159.410 Y74.373 E36.43749
G1 X159.410 Y74.849 E36.44429
G1 X183.390 Y98.830 E36.92872
G1 X182.914 Y98.830 E36.93552
G1 X159.410 Y75.325 E37.41033
G1 X159.410 Y75.801 E37.41713
G1 X182.438 Y98.830 E37.88232
G1 X181.962 Y98.830 E37.88912
G1 X159.410 Y76.277 E38.34470
G1 X159.410 Y76.753 E38.35150
G1 X181.486 Y98.830 E38.79747
G1 X181.010 Y98.830 E38.80427
G1 X159.410 Y77.229 E39.24062
G1 X159.410 Y77.705 E39.24742
G1 X180.534 Y98.830 E39.67415
G1 X180.058 Y98.830 E39.68095
G1 X159.410 Y78.181 E40.09807
G1 X159.410 Y78.657 E40.10487
G1 X179.582 Y98.830 E40.51238
G1 X179.107 Y98.830 E40.51918
G1 X174.410 Y94.133 E40.61406
G1 X174.107 Y93.830 F6000.000
G1 X159.410 Y79.133 E40.91095 F720.000
G1 X159.410 Y79.609 E40.91775
G1 X173.631 Y93.830 E41.20502
G1 X173.155 Y93.830 E41.21182
G1 X159.410 Y80.085 E41.48948
G1 X159.410 Y80.561 E41.49628
G1 X172.679 Y93.830 E41.76432
G1 X172.203 Y93.830 E41.77112
G1 X159.410 Y81.037 E42.02955
G1 X159.410 Y81.513 E42.03635
G1 X171.727 Y93.830 E42.28516
G1 X171.251 Y93.830 E42.29196
G1 X159.410 Y81.989 E42.53116
G1 X159.410 Y82.465 E42.53796
G1 X170.775 Y93.830 E42.76754
G1 X170.299 Y93.830 E42.77434
G1 X159.410 Y82.941 E42.99431
G1 X159.410 Y83.417 E43.00111
G1 X169.823 Y93.830 E43.21146
G1 X169.347 Y93.830 E43.21826
G1 X159.410 Y83.893 E43.41900
G1 X159.410 Y84.369 E43.42580
G1 X168.871 Y93.830 E43.61692
G1 X168.395 Y93.830 E43.62372
G1 X159.410 Y84.845 E43.80523
G1 X159.410 Y85.321 E43.81203
G1 X167.919 Y93.830 E43.98393
G1 X167.443 Y93.830 E43.99072
G1 X159.410 Y85.797 E44.15300
G1 X159.410 Y86.273 E44.15980
G1 X166.967 Y93.830 E44.31247
G1 X166.491 Y93.830 E44.31927
G1 X159.410 Y86.749 E44.46232
G1 X159.410 Y87.225 E44.46912
G1 X166.015 Y93.830 E44.60255
G1 X165.970 Y94.261 E44.60874
G1 X159.410 Y87.700 E44.74127
G1 X159.410 Y88.176 E44.74807
G1 X165.970 Y94.737 E44.88059
G1 X165.970 Y95.213 E44.88739
G1 X159.410 Y88.652 E45.01992
G1 X159.410 Y89.128 E45.02672
G1 X165.970 Y95.689 E45.15924
G1 X165.970 Y96.165 E45.16604
G1 X159.410 Y89.604 E45.29857
G1 X159.410 Y90.080 E45.30537
G1 X165.970 Y96.641 E45.43789
G1 X165.970 Y97.117 E45.44469
G1 X159.410 Y90.556 E45.57722
G1 X159.410 Y91.032 E45.58402
G1 X165.970 Y97.593 E45.71654
G1 X165.970 Y98.069 E45.72334
G1 X159.410 Y91.508 E45.85587
G1 X159.410 Y91.984 E45.86267
G1 X165.970 Y98.545 E45.99519
G1 X165.779 Y98.830 E46.00010
G1 X159.410 Y92.460 E46.12877
G1 X159.410 Y92.936 E46.13557
G1 X165.303 Y98.830 E46.25463
G1 X164.827 Y98.830 E46.26143
G1 X159.410 Y93.412 E46.37087
G1 X159.410 Y93.888 E46.37767
G1 X164.351 Y98.830 E46.47750
G1 X163.876 Y98.830 E46.48430
