; generated by Slic3r 1.2.9 on 2016-06-20 at 15:14:24

; external perimeters extrusion width = 0.40mm
; perimeters extrusion width = 0.40mm
; infill extrusion width = 0.40mm
; solid infill extrusion width = 0.40mm
; top infill extrusion width = 0.40mm
; support material extrusion width = 0.40mm

M107
M190 S60 ; set bed temperature
M104 S216 ; set temperature
G28 ; home all axes\
M203 X192 Y208 Z3 ; Speed limits to minimize skipped steps when moving really fast courtesy of forum.lulzbot.com user 1013
G1 Z5 F5000 ; lift nozzle

M109 S216 ; wait for temperature to be reached
G21 ; set units to millimeters
G90 ; use absolute coordinates
M82 ; use absolute distances for extrusion
G92 E0
G1 Z0.300 F6000.000
G1 E-1.00000 F1500.00000
G92 E0
G1 X135.395 Y28.327 F6000.000
G1 E1.00000 F1500.00000
M204 S250
G1 X136.542 Y26.265 E1.03360 F2400.000
G1 X138.307 Y24.701 E1.06721
G1 X140.492 Y23.811 E1.10081
G1 X142.005 Y23.645 E1.12249
G1 X221.705 Y23.645 E2.25774
G1 X224.030 Y24.043 E2.29135
G1 X226.092 Y25.189 E2.32495 F2400.000
G1 X227.657 Y26.955 E2.35855
G1 X228.546 Y29.140 E2.39216
G1 X228.712 Y30.652 E2.41383
G1 X228.712 Y155.152 E4.18723
G1 X228.315 Y157.478 E4.22083
G1 X227.168 Y159.540 E4.25444
G1 X225.402 Y161.104 E4.28804
G1 X223.218 Y161.994 E4.32164
G1 X221.705 Y162.159 E4.34332
G1 X142.005 Y162.159 E5.47858
G1 X139.679 Y161.762 E5.51218
G1 X137.618 Y160.616 E5.54578
G1 X136.053 Y158.850 E5.57939
G1 X135.163 Y156.665 E5.61299
G1 X134.998 Y155.152 E5.63467
G1 X134.998 Y30.652 E7.40806
G1 X135.385 Y28.386 E7.44081
M204 S400
G1 X135.720 Y28.445 F6000.000
M204 S250
G1 X135.731 Y28.385 E7.44167 F2400.000
G1 X136.874 Y26.388 E7.47445
G1 X138.629 Y24.898 E7.50723
G1 X140.785 Y24.094 E7.54002
G1 X142.005 Y23.981 E7.55747
G1 X221.705 Y23.981 E8.69272
G1 X223.972 Y24.378 E8.72551
G1 X225.969 Y25.522 E8.75829 F2400.000
G1 X227.459 Y27.276 E8.79107
G1 X228.264 Y29.432 E8.82386
G1 X228.376 Y30.652 E8.84131
G1 X228.376 Y155.152 E10.61470
G1 X227.979 Y157.419 E10.64748
G1 X226.835 Y159.417 E10.68027
G1 X225.081 Y160.906 E10.71305
G1 X222.925 Y161.711 E10.74583
G1 X221.705 Y161.824 E10.76328
G1 X142.005 Y161.824 E11.89854
G1 X139.738 Y161.427 E11.93132
G1 X137.741 Y160.283 E11.96411
G1 X136.251 Y158.528 E11.99689
G1 X135.446 Y156.372 E12.02967
G1 X135.334 Y155.152 E12.04712
G1 X135.334 Y30.652 E13.82052
G1 X135.710 Y28.504 E13.85159
M204 S400
G1 X136.045 Y28.564 F6000.000
M204 S250
G1 X136.066 Y28.445 E13.85331 F2400.000
G1 X137.207 Y26.515 E13.88525
G1 X138.949 Y25.103 E13.91719
G1 X142.005 Y24.317 E13.96214
G1 X221.705 Y24.317 E15.09739
G1 X223.912 Y24.714 E15.12934
G1 X225.842 Y25.854 E15.16128 F2400.000
G1 X227.255 Y27.596 E15.19322
G1 X228.040 Y30.652 E15.23817
G1 X228.040 Y155.152 E17.01156
G1 X227.644 Y157.359 E17.04350
G1 X226.503 Y159.290 E17.07544
G1 X224.761 Y160.702 E17.10738
G1 X221.705 Y161.488 E17.15233
G1 X142.005 Y161.488 E18.28759
G1 X139.798 Y161.091 E18.31953
G1 X137.867 Y159.950 E18.35147
G1 X136.455 Y158.208 E18.38341
G1 X135.669 Y155.152 E18.42836
G1 X135.669 Y30.652 E20.20176
G1 X136.034 Y28.623 E20.23112
M204 S400
G1 E19.23112 F1500.00000
G92 E0
G1 X193.569 Y153.610 F6000.000
G1 E1.00000 F1500.00000
M204 S250
G1 X143.547 Y153.610 E1.71252 F3120.000
G1 X143.547 Y32.195 E3.44197
G1 X220.162 Y32.195 E4.53328
G1 X220.162 Y153.610 E6.26274
G1 X193.629 Y153.610 E6.64068 F3120.000
M204 S400
G1 X193.629 Y153.945 F6000.000
M204 S250
G1 X143.212 Y153.945 E7.35883 F3120.000
G1 X143.212 Y31.859 E9.09784
G1 X220.498 Y31.859 E10.19872
G1 X220.498 Y153.945 E11.93773
G1 X193.689 Y153.945 E12.31960 F3120.000
M204 S400
G1 X193.689 Y154.281 F6000.000
M204 S250
G1 X142.876 Y154.281 E13.04339 F3120.000
G1 X142.876 Y31.524 E14.79196
G1 X220.834 Y31.524 E15.90240
G1 X220.834 Y154.281 E17.65098
G1 X193.749 Y154.281 E18.03677 F3120.000
M204 S400
G1 X193.749 Y154.617 F6000.000
M204 S250
G1 X142.540 Y154.617 E18.76619 F3120.000
G1 X142.540 Y31.188 E20.52433
G1 X221.169 Y31.188 E21.64433
G1 X221.169 Y154.617 E23.40246
G1 X193.809 Y154.617 E23.79218 F3120.000
M204 S400
G1 X193.809 Y154.952 F6000.000
M204 S250
G1 X142.205 Y154.952 E24.52724 F2184.000
G1 X142.205 Y30.852 E26.29494
G1 X221.505 Y30.852 E27.42450
G1 X221.505 Y154.952 E29.19220
G1 X193.869 Y154.952 E29.58584 F2184.000
M204 S400
G1 X193.609 Y154.606 F6000.000
G1 X144.399 Y153.416 F6000.000
M204 S250
G1 X143.741 Y152.758 E29.59912 F3360.000
G1 X143.741 Y152.282 E29.60591
G1 X144.875 Y153.416 E29.62878
G1 X145.350 Y153.416 E29.63557
G1 X143.741 Y151.807 E29.66804
G1 X143.741 Y151.331 E29.67483
G1 X145.826 Y153.416 E29.71690
G1 X146.301 Y153.416 E29.72369
G1 X143.741 Y150.856 E29.77536
G1 X143.741 Y150.380 E29.78215
G1 X146.777 Y153.416 E29.84342
G1 X147.253 Y153.416 E29.85021
G1 X143.741 Y149.905 E29.92108
G1 X143.741 Y149.429 E29.92786
G1 X147.728 Y153.416 E30.00833
G1 X148.204 Y153.416 E30.01512
G1 X143.741 Y148.953 E30.10519
G1 X143.741 Y148.478 E30.11198
G1 X148.679 Y153.416 E30.21165
G1 X149.155 Y153.416 E30.21843
G1 X143.741 Y148.002 E30.32770
G1 X143.741 Y147.527 E30.33449
G1 X149.630 Y153.416 E30.45335
G1 X150.106 Y153.416 E30.46014
G1 X143.741 Y147.051 E30.58861
G1 X143.741 Y146.576 E30.59539
G1 X150.582 Y153.416 E30.73346
G1 X151.057 Y153.416 E30.74024
G1 X143.741 Y146.100 E30.88791
G1 X143.741 Y145.624 E30.89470
G1 X151.533 Y153.416 E31.05196
G1 X152.008 Y153.416 E31.05875
G1 X143.741 Y145.149 E31.22561
G1 X143.741 Y144.673 E31.23239
G1 X152.484 Y153.416 E31.40886
G1 X152.960 Y153.416 E31.41564
G1 X143.741 Y144.198 E31.60170
G1 X143.741 Y143.722 E31.60849
G1 X153.435 Y153.416 E31.80415
G1 X153.911 Y153.416 E31.81094
G1 X143.741 Y143.247 E32.01620
G1 X143.741 Y142.771 E32.02298
G1 X154.386 Y153.416 E32.23784
G1 X154.862 Y153.416 E32.24463
G1 X143.741 Y142.295 E32.46908
G1 X143.741 Y141.820 E32.47587
G1 X155.337 Y153.416 E32.70993
G1 X155.813 Y153.416 E32.71672
G1 X143.741 Y141.344 E32.96037
G1 X143.741 Y140.869 E32.96716
G1 X156.289 Y153.416 E33.22041
G1 X156.764 Y153.416 E33.22720
G1 X143.741 Y140.393 E33.49005
G1 X143.741 Y139.917 E33.49684
G1 X157.240 Y153.416 E33.76929
G1 X157.715 Y153.416 E33.77608
G1 X143.741 Y139.442 E34.05813
G1 X143.741 Y138.966 E34.06492
G1 X158.191 Y153.416 E34.35657
G1 X158.666 Y153.416 E34.36336
G1 X143.741 Y138.491 E34.66461
G1 X143.741 Y138.015 E34.67139
G1 X159.142 Y153.416 E34.98224
G1 X159.618 Y153.416 E34.98903
G1 X143.741 Y137.540 E35.30948
G1 X143.741 Y137.064 E35.31627
G1 X160.093 Y153.416 E35.64631
G1 X160.569 Y153.416 E35.65310
G1 X143.741 Y136.588 E35.99275
G1 X143.741 Y136.113 E35.99953
G1 X161.044 Y153.416 E36.34878
G1 X161.520 Y153.416 E36.35557
G1 X143.741 Y135.637 E36.71441
G1 X143.741 Y135.162 E36.72120
G1 X161.995 Y153.416 E37.08964
G1 X162.471 Y153.416 E37.09643
G1 X143.741 Y134.686 E37.47447
G1 X143.741 Y134.211 E37.48126
G1 X162.947 Y153.416 E37.86890
G1 X163.422 Y153.416 E37.87569
G1 X143.741 Y133.735 E38.27293
G1 X143.741 Y133.259 E38.27972
G1 X163.898 Y153.416 E38.68656
G1 X164.373 Y153.416 E38.69335
G1 X143.741 Y132.784 E39.10979
G1 X143.741 Y132.308 E39.11657
G1 X164.849 Y153.416 E39.54261
G1 X165.325 Y153.416 E39.54940
G1 X143.741 Y131.833 E39.98504
G1 X143.741 Y131.357 E39.99182
G1 X165.800 Y153.416 E40.43706
G1 X166.276 Y153.416 E40.44385
G1 X143.741 Y130.881 E40.89868
G1 X143.741 Y130.406 E40.90547
G1 X166.751 Y153.416 E41.36991
G1 X167.227 Y153.416 E41.37669
G1 X143.741 Y129.930 E41.85073
G1 X143.741 Y129.455 E41.85752
G1 X167.702 Y153.416 E42.34115
G1 X168.178 Y153.416 E42.34794
G1 X143.741 Y128.979 E42.84117
G1 X143.741 Y128.504 E42.84796
G1 X168.654 Y153.416 E43.35079
G1 X169.129 Y153.416 E43.35758
G1 X143.741 Y128.028 E43.87001
G1 X143.741 Y127.552 E43.87680
G1 X169.605 Y153.416 E44.39883
G1 X170.080 Y153.416 E44.40561
G1 X143.741 Y127.077 E44.93724
G1 X143.741 Y126.601 E44.94403
G1 X170.556 Y153.416 E45.48526
G1 X171.031 Y153.416 E45.49205
G1 X143.741 Y126.126 E46.04287
G1 X143.741 Y125.650 E46.04966
G1 X171.507 Y153.416 E46.61009
G1 X171.983 Y153.416 E46.61687
G1 X143.741 Y125.175 E47.18690
G1 X143.741 Y124.699 E47.19369
G1 X172.458 Y153.416 E47.77331
G1 X172.934 Y153.416 E47.78010
G1 X143.741 Y124.223 E48.36932
G1 X143.741 Y123.748 E48.37611
G1 X173.409 Y153.416 E48.97493
G1 X173.885 Y153.416 E48.98172
G1 X143.741 Y123.272 E49.59014
G1 X143.741 Y122.797 E49.59693
G1 X174.361 Y153.416 E50.21495
G1 X174.836 Y153.416 E50.22174
G1 X143.741 Y122.321 E50.84936
G1 X143.741 Y121.846 E50.85615
G1 X175.312 Y153.416 E51.49337
G1 X175.787 Y153.416 E51.50016
G1 X143.741 Y121.370 E52.14698
G1 X143.741 Y120.894 E52.15376
G1 X176.263 Y153.416 E52.81018
G1 X176.738 Y153.416 E52.81697
G1 X143.741 Y120.419 E53.48299
G1 X143.741 Y119.943 E53.48977
G1 X177.214 Y153.416 E54.16539
G1 X177.690 Y153.416 E54.17218
G1 X143.741 Y119.468 E54.85739
G1 X143.741 Y118.992 E54.86418
G1 X178.165 Y153.416 E55.55899
G1 X178.641 Y153.416 E55.56578
G1 X143.741 Y118.516 E56.27020
G1 X143.741 Y118.041 E56.27698
G1 X179.116 Y153.416 E56.99100
G1 X179.592 Y153.416 E56.99778
G1 X143.741 Y117.565 E57.72140
G1 X143.741 Y117.090 E57.72818
G1 X180.067 Y153.416 E58.46139
G1 X180.543 Y153.416 E58.46818
G1 X143.741 Y116.614 E59.21099
G1 X143.741 Y116.139 E59.21778
G1 X181.019 Y153.416 E59.97019
G1 X181.494 Y153.416 E59.97698
G1 X143.741 Y115.663 E60.73899
G1 X143.741 Y115.187 E60.74577
G1 X181.970 Y153.416 E61.51738
G1 X182.445 Y153.416 E61.52417
G1 X143.741 Y114.712 E62.30538
G1 X143.741 Y114.236 E62.31216
G1 X182.921 Y153.416 E63.10297
G1 X183.397 Y153.416 E63.10976
G1 X143.741 Y113.761 E63.91016
G1 X143.741 Y113.285 E63.91695
G1 X183.872 Y153.416 E64.72695
G1 X184.348 Y153.416 E64.73374
G1 X143.741 Y112.810 E65.55335
G1 X143.741 Y112.334 E65.56013
G1 X184.823 Y153.416 E66.38934
G1 X185.299 Y153.416 E66.39612
G1 X143.741 Y111.858 E67.23492
G1 X143.741 Y111.383 E67.24171
G1 X185.774 Y153.416 E68.09011
G1 X186.250 Y153.416 E68.09690
G1 X143.741 Y110.907 E68.95490
G1 X143.741 Y110.432 E68.96169
G1 X186.726 Y153.416 E69.82929
G1 X187.201 Y153.416 E69.83608
G1 X143.741 Y109.956 E70.71327
G1 X143.741 Y109.480 E70.72006
G1 X187.677 Y153.416 E71.60686
G1 X188.152 Y153.416 E71.61365
G1 X143.741 Y109.005 E72.51004
G1 X143.741 Y108.529 E72.51683
G1 X188.628 Y153.416 E73.42283
G1 X189.103 Y153.416 E73.42961
G1 X143.741 Y108.054 E74.34521
G1 X143.741 Y107.578 E74.35200
G1 X189.579 Y153.416 E75.27719
G1 X190.055 Y153.416 E75.28398
G1 X143.741 Y107.103 E76.21877
G1 X143.741 Y106.627 E76.22556
G1 X190.530 Y153.416 E77.16995
G1 X191.006 Y153.416 E77.17674
G1 X143.741 Y106.151 E78.13073
G1 X143.741 Y105.676 E78.13752
G1 X191.481 Y153.416 E79.10111
G1 X191.957 Y153.416 E79.10790
G1 X143.741 Y105.200 E80.08109
G1 X143.741 Y104.725 E80.08787
G1 X192.432 Y153.416 E81.07066
G1 X192.908 Y153.416 E81.07745
G1 X143.741 Y104.249 E82.06984
G1 X143.741 Y103.774 E82.07663
G1 X193.384 Y153.416 E83.07861
G1 X193.859 Y153.416 E83.08540
G1 X143.741 Y103.298 E84.09699
G1 X143.741 Y102.822 E84.10377
G1 X194.335 Y153.416 E85.12496
G1 X194.810 Y153.416 E85.13175
G1 X143.741 Y102.347 E86.16253
G1 X143.741 Y101.871 E86.16932
G1 X195.286 Y153.416 E87.20970
G1 X195.762 Y153.416 E87.21649
G1 X143.741 Y101.396 E88.26647
G1 X143.741 Y100.920 E88.27326
G1 X196.237 Y153.416 E89.33284
G1 X196.713 Y153.416 E89.33963
G1 X143.741 Y100.444 E90.40881
G1 X143.741 Y99.969 E90.41560
G1 X197.188 Y153.416 E91.49438
G1 X197.664 Y153.416 E91.50117
G1 X143.741 Y99.493 E92.58955
G1 X143.741 Y99.018 E92.59633
G1 X198.139 Y153.416 E93.69431
G1 X198.615 Y153.416 E93.70110
G1 X143.741 Y98.542 E94.80868
G1 X143.741 Y98.067 E94.81547
G1 X199.091 Y153.416 E95.93264
G1 X199.566 Y153.416 E95.93943
G1 X143.741 Y97.591 E97.06621
G1 X143.741 Y97.115 E97.07299
G1 X200.042 Y153.416 E98.20937
G1 X200.517 Y153.416 E98.21616
G1 X143.741 Y96.640 E99.36213
G1 X143.741 Y96.164 E99.36892
G1 X200.993 Y153.416 E100.52449
G1 X201.468 Y153.416 E100.53128
G1 X143.741 Y95.689 E101.69645
G1 X143.741 Y95.213 E101.70324
G1 X201.944 Y153.416 E102.87801
G1 X202.420 Y153.416 E102.88480
G1 X143.741 Y94.738 E104.06917
G1 X143.741 Y94.262 E104.07596
G1 X202.895 Y153.416 E105.26993
G1 X203.371 Y153.416 E105.27672
G1 X143.741 Y93.786 E106.48029
G1 X143.741 Y93.311 E106.48707
G1 X203.846 Y153.416 E107.70024
G1 X204.322 Y153.416 E107.70703
G1 X143.741 Y92.835 E108.92980
G1 X143.741 Y92.360 E108.93658
G1 X204.798 Y153.416 E110.16895
G1 X205.273 Y153.416 E110.17574
G1 X143.741 Y91.884 E111.41770
G1 X143.741 Y91.409 E111.42449
G1 X205.749 Y153.416 E112.67606
G1 X206.224 Y153.416 E112.68284
G1 X143.741 Y90.933 E113.94401
G1 X143.741 Y90.457 E113.95080
G1 X206.700 Y153.416 E115.22156
G1 X207.175 Y153.416 E115.22835
G1 X143.741 Y89.982 E116.50871
G1 X143.741 Y89.506 E116.51550
G1 X207.651 Y153.416 E117.80546
G1 X208.127 Y153.416 E117.81225
G1 X143.741 Y89.031 E119.11181
G1 X143.741 Y88.555 E119.11859
G1 X208.602 Y153.416 E120.42775
G1 X209.078 Y153.416 E120.43454
G1 X143.741 Y88.079 E121.75330
G1 X143.741 Y87.604 E121.76009
G1 X209.553 Y153.416 E123.08845
G1 X210.029 Y153.416 E123.09523
G1 X143.741 Y87.128 E124.43319
G1 X143.741 Y86.653 E124.43998
G1 X210.504 Y153.416 E125.78754
G1 X210.980 Y153.416 E125.79432
G1 X143.741 Y86.177 E127.15148
G1 X143.741 Y85.702 E127.15827
G1 X211.456 Y153.416 E128.52502
G1 X211.931 Y153.416 E128.53181
G1 X143.741 Y85.226 E129.90816
G1 X143.741 Y84.750 E129.91495
G1 X212.407 Y153.416 E131.30090
G1 X212.882 Y153.416 E131.30769
G1 X143.741 Y84.275 E132.70324
G1 X143.741 Y83.799 E132.71003
G1 X213.358 Y153.416 E134.11518
G1 X213.834 Y153.416 E134.12197
G1 X143.741 Y83.324 E135.53672
G1 X143.741 Y82.848 E135.54351
G1 X214.309 Y153.416 E136.96786
G1 X214.785 Y153.416 E136.97464
G1 X143.741 Y82.373 E138.40859
G1 X143.741 Y81.897 E138.41538
G1 X215.260 Y153.416 E139.85893
G1 X215.736 Y153.416 E139.86572
G1 X143.741 Y81.421 E141.31886
G1 X143.741 Y80.946 E141.32565
G1 X216.211 Y153.416 E142.78840
G1 X216.687 Y153.416 E142.79518
G1 X143.741 Y80.470 E144.26753
G1 X143.741 Y79.995 E144.27432
G1 X217.163 Y153.416 E145.75626
G1 X217.638 Y153.416 E145.76305
G1 X143.741 Y79.519 E147.25459
G1 X143.741 Y79.043 E147.26138
G1 X218.114 Y153.416 E148.76252
G1 X218.589 Y153.416 E148.76931
G1 X143.741 Y78.568 E150.28005
G1 X143.741 Y78.092 E150.28684
G1 X219.065 Y153.416 E151.80718
G1 X219.540 Y153.416 E151.81397
G1 X143.741 Y77.617 E153.34391
G1 X143.741 Y77.141 E153.35070
G1 X219.968 Y153.368 E154.88927
G1 X219.968 Y152.893 E154.89606
G1 X143.741 Y76.666 E156.43464
G1 X143.741 Y76.190 E156.44142
G1 X219.968 Y152.417 E157.98000
G1 X219.968 Y151.941 E157.98679
G1 X143.741 Y75.714 E159.52537
G1 X143.741 Y75.239 E159.53215
G1 X219.968 Y151.466 E161.07073
G1 X219.968 Y150.990 E161.07752
G1 X143.741 Y74.763 E162.61609
G1 X143.741 Y74.288 E162.62288
G1 X219.968 Y150.515 E164.16146
G1 X219.968 Y150.039 E164.16825
G1 X143.741 Y73.812 E165.70682
G1 X143.741 Y73.337 E165.71361
G1 X219.968 Y149.563 E167.25219
G1 X219.968 Y149.088 E167.25897
G1 X143.741 Y72.861 E168.79755
G1 X143.741 Y72.385 E168.80434
G1 X219.968 Y148.612 E170.34292
G1 X219.968 Y148.137 E170.34970
G1 X143.741 Y71.910 E171.88828
G1 X143.741 Y71.434 E171.89507
G1 X219.968 Y147.661 E173.43364
G1 X219.968 Y147.186 E173.44043
G1 X143.741 Y70.959 E174.97901
G1 X143.741 Y70.483 E174.98580
G1 X219.968 Y146.710 E176.52437
G1 X219.968 Y146.234 E176.53116
G1 X143.741 Y70.007 E178.06974
G1 X143.741 Y69.532 E178.07652
G1 X219.968 Y145.759 E179.61510
G1 X219.968 Y145.283 E179.62189
G1 X143.741 Y69.056 E181.16046
G1 X143.741 Y68.581 E181.16725
G1 X219.968 Y144.808 E182.70583
G1 X219.968 Y144.332 E182.71262
G1 X143.741 Y68.105 E184.25119
G1 X143.741 Y67.630 E184.25798
G1 X219.968 Y143.857 E185.79656
G1 X219.968 Y143.381 E185.80335
G1 X143.741 Y67.154 E187.34192
G1 X143.741 Y66.678 E187.34871
G1 X219.968 Y142.905 E188.88729
G1 X219.968 Y142.430 E188.89407
G1 X143.741 Y66.203 E190.43265
G1 X143.741 Y65.727 E190.43944
G1 X219.968 Y141.954 E191.97801
G1 X219.968 Y141.479 E191.98480
G1 X143.741 Y65.252 E193.52338
G1 X143.741 Y64.776 E193.53017
G1 X219.968 Y141.003 E195.06874
G1 X219.968 Y140.527 E195.07553
G1 X143.741 Y64.301 E196.61411
G1 X143.741 Y63.825 E196.62089
