; generated by Slic3r 1.2.9 on 2016-07-01 at 09:19:39

; external perimeters extrusion width = 0.40mm
; perimeters extrusion width = 0.40mm
; infill extrusion width = 0.40mm
; solid infill extrusion width = 0.40mm
; top infill extrusion width = 0.40mm
; support material extrusion width = 0.40mm

M107
M190 S60 ; set bed temperature
M104 S216 ; set temperature
G28 ; home all axes\
M203 X192 Y208 Z3 ; Speed limits to minimize skipped steps when moving really fast courtesy of forum.lulzbot.com user 1013
G1 Z5 F5000 ; lift nozzle

M109 S216 ; wait for temperature to be reached
G21 ; set units to millimeters
G90 ; use absolute coordinates
M82 ; use absolute distances for extrusion
G92 E0
G1 Z0.300 F7200.000
G1 E-1.00000 F1500.00000
G92 E0
G1 X110.798 Y28.879 F7200.000
G1 E1.00000 F1500.00000
M204 S400
G1 X111.947 Y26.754 E1.03440 F2400.000
G1 X113.723 Y25.117 E1.06881
G1 X115.934 Y24.145 E1.10321
G1 X117.743 Y23.919 E1.12919
G1 X183.743 Y23.919 E2.06930
G1 X186.126 Y24.316 E2.10370
G1 X188.250 Y25.465 E2.13811 F2400.000
G1 X189.887 Y27.241 E2.17251
G1 X190.859 Y29.452 E2.20692
G1 X191.086 Y31.261 E2.23289
G1 X191.086 Y50.261 E2.50353
G1 X190.967 Y51.575 E2.52231
G1 X184.967 Y84.575 E3.00007
G1 X184.150 Y86.848 E3.03448
G1 X182.640 Y88.733 E3.06888
G1 X180.600 Y90.025 E3.10329
G1 X177.743 Y90.604 E3.14480
G1 X117.743 Y90.604 E3.99945
G1 X115.361 Y90.206 E4.03385
G1 X113.236 Y89.058 E4.06826
G1 X111.599 Y87.282 E4.10266
G1 X110.627 Y85.070 E4.13707
G1 X110.401 Y83.261 E4.16304
G1 X110.401 Y31.261 E4.90373
G1 X110.788 Y28.938 E4.93728
M204 S600
G1 X111.123 Y28.995 F7200.000
M204 S400
G1 X111.133 Y28.936 E4.93814 F2400.000
G1 X112.280 Y26.874 E4.97175
G1 X114.046 Y25.309 E5.00535
G1 X116.230 Y24.420 E5.03895
G1 X117.743 Y24.254 E5.06063
G1 X183.743 Y24.254 E6.00074
G1 X186.069 Y24.652 E6.03434
G1 X188.130 Y25.798 E6.06795 F2400.000
G1 X189.695 Y27.564 E6.10155
G1 X190.585 Y29.749 E6.13516
G1 X190.750 Y31.261 E6.15683
G1 X190.750 Y50.261 E6.42747
G1 X190.637 Y51.515 E6.44540
G1 X184.637 Y84.515 E6.92316
G1 X183.830 Y86.732 E6.95676
G1 X182.334 Y88.555 E6.99037
G1 X180.316 Y89.779 E7.02397
G1 X177.743 Y90.268 E7.06128
G1 X117.743 Y90.268 E7.91593
G1 X115.418 Y89.871 E7.94953
G1 X113.356 Y88.725 E7.98314
G1 X111.791 Y86.959 E8.01674
G1 X110.902 Y84.774 E8.05034
G1 X110.736 Y83.261 E8.07202
G1 X110.736 Y31.261 E8.81271
G1 X111.113 Y29.054 E8.84460
M204 S600
G1 X111.448 Y29.113 F7200.000
M204 S400
G1 X111.469 Y28.994 E8.84632 F2400.000
G1 X112.613 Y26.997 E8.87910
G1 X114.367 Y25.507 E8.91189
G1 X116.523 Y24.703 E8.94467
G1 X117.743 Y24.590 E8.96212
G1 X183.743 Y24.590 E9.90223
G1 X186.010 Y24.987 E9.93502
G1 X188.007 Y26.131 E9.96780 F2400.000
G1 X189.497 Y27.885 E10.00058
G1 X190.302 Y30.041 E10.03337
G1 X190.414 Y31.261 E10.05082
G1 X190.414 Y50.261 E10.32145
G1 X190.307 Y51.455 E10.33852
G1 X184.307 Y84.455 E10.81629
G1 X183.511 Y86.614 E10.84907
G1 X182.028 Y88.375 E10.88185
G1 X180.036 Y89.526 E10.91463
G1 X177.743 Y89.933 E10.94780
G1 X117.743 Y89.933 E11.80244
G1 X115.476 Y89.536 E11.83523
G1 X113.479 Y88.392 E11.86801
G1 X111.989 Y86.637 E11.90079
G1 X111.184 Y84.481 E11.93358
G1 X111.072 Y83.261 E11.95103
G1 X111.072 Y31.261 E12.69172
G1 X111.438 Y29.172 E12.72193
M204 S600
G1 X111.772 Y29.232 F7200.000
M204 S400
G1 X111.804 Y29.054 E12.72451 F2400.000
G1 X112.945 Y27.124 E12.75645
G1 X114.687 Y25.711 E12.78839
G1 X117.743 Y24.926 E12.83334
G1 X183.743 Y24.926 E13.77345
G1 X185.950 Y25.323 E13.80539
G1 X187.881 Y26.463 E13.83734 F2400.000
G1 X189.293 Y28.205 E13.86928
G1 X190.079 Y31.261 E13.91422
G1 X190.079 Y50.261 E14.18486
G1 X189.977 Y51.395 E14.20107
G1 X183.977 Y84.395 E14.67883
G1 X183.191 Y86.495 E14.71078
G1 X181.724 Y88.190 E14.74272
G1 X179.757 Y89.268 E14.77466
G1 X177.743 Y89.597 E14.80373
G1 X117.743 Y89.597 E15.65837
G1 X115.536 Y89.200 E15.69032
G1 X113.606 Y88.059 E15.72226
G1 X112.193 Y86.317 E15.75420
G1 X111.408 Y83.261 E15.79915
G1 X111.408 Y31.261 E16.53984
G1 X111.762 Y29.291 E16.56835
M204 S600
G1 E15.56835 F1500.00000
G92 E0
G1 X145.536 Y49.054 F7200.000
G1 E1.00000 F1500.00000
M204 S400
G1 X167.950 Y49.054 E1.31926 F3120.000
G1 X167.950 Y76.468 E1.70975
G1 X145.536 Y76.468 E2.02901
G1 X145.536 Y49.114 E2.41864
M204 S600
G1 X145.872 Y49.390 F7200.000
M204 S400
G1 X167.614 Y49.390 E2.72835 F3120.000
G1 X167.614 Y76.133 E3.10927
G1 X145.872 Y76.133 E3.41897
G1 X145.872 Y49.450 E3.79904
M204 S600
G1 X146.208 Y49.726 F7200.000
M204 S400
G1 X167.279 Y49.726 E4.09918 F3120.000
G1 X167.279 Y75.797 E4.47054
G1 X146.208 Y75.797 E4.77069
G1 X146.208 Y49.786 E5.14119
M204 S600
G1 X146.543 Y50.061 F7200.000
M204 S400
G1 X166.943 Y50.061 E5.43177 F2340.000
G1 X166.943 Y75.461 E5.79357
G1 X146.543 Y75.461 E6.08415
G1 X146.543 Y50.121 E6.44510
M204 S600
G1 X146.543 Y49.661 F7200.000
G1 X141.950 Y50.121 F7200.000
M204 S400
G1 X141.950 Y67.468 E6.69219 F3120.000
G1 X127.536 Y67.468 E6.89750
G1 X127.536 Y43.054 E7.24525
G1 X141.950 Y43.054 E7.45057 F3120.000
G1 X141.950 Y50.061 E7.55037
M204 S600
G1 X141.614 Y50.061 F7200.000
M204 S400
G1 X141.614 Y67.133 E7.79354 F3120.000
G1 X127.872 Y67.133 E7.98929
G1 X127.872 Y43.390 E8.32748
G1 X141.614 Y43.390 E8.52323 F3120.000
G1 X141.614 Y50.001 E8.61740
M204 S600
G1 X141.279 Y50.001 F7200.000
M204 S400
G1 X141.279 Y66.797 E8.85664 F3120.000
G1 X128.208 Y66.797 E9.04283
G1 X128.208 Y43.726 E9.37146
G1 X141.279 Y43.726 E9.55764 F3120.000
G1 X141.279 Y49.941 E9.64618
M204 S600
G1 X140.943 Y49.941 F7200.000
M204 S400
G1 X140.943 Y66.461 E9.88149 F2340.000
G1 X128.543 Y66.461 E10.05812
G1 X128.543 Y44.061 E10.37719
G1 X140.943 Y44.061 E10.55382 F2340.000
G1 X140.943 Y49.881 E10.63672
M204 S600
G1 X141.290 Y50.141 F7200.000
G1 X141.743 Y43.261 F7200.000
G1 X141.743 Y37.761 F7200.000
G1 X131.243 Y37.761 F7200.000
G1 X131.143 Y37.661 F7200.000
G1 X133.590 Y32.468 F7200.000
M204 S400
G1 X182.536 Y32.468 E11.33391 F3120.000
G1 X182.536 Y49.054 E11.57017
G1 X177.536 Y49.054 E11.64139 F3120.000
G1 X177.536 Y72.054 E11.96900
G1 X176.536 Y72.054 E11.98325
G1 X176.536 Y82.054 E12.12569
G1 X133.950 Y82.054 E12.73229
G1 X133.950 Y77.054 E12.80351
G1 X124.536 Y77.054 E12.93760
G1 X124.536 Y82.054 E13.00883
G1 X118.950 Y82.054 E13.08840
G1 X118.950 Y49.068 E13.55826
G1 X125.950 Y49.068 E13.65797
G1 X125.950 Y37.454 E13.82339
G1 X118.950 Y37.454 E13.92310
G1 X118.950 Y32.468 E13.99413
G1 X133.530 Y32.468 E14.20181
M204 S600
G1 X133.530 Y32.133 F7200.000
M204 S400
G1 X182.872 Y32.133 E14.90464 F3120.000
G1 X182.872 Y49.390 E15.15046
G1 X177.872 Y49.390 E15.22168 F3120.000
G1 X177.872 Y72.390 E15.54929
G1 X176.872 Y72.390 E15.56354
G1 X176.872 Y82.390 E15.70598
G1 X133.614 Y82.390 E16.32215
G1 X133.614 Y77.390 E16.39337
G1 X124.872 Y77.390 E16.51790
G1 X124.872 Y82.390 E16.58912
G1 X118.614 Y82.390 E16.67825
G1 X118.614 Y48.733 E17.15767
G1 X125.614 Y48.733 E17.25738
G1 X125.614 Y37.790 E17.41325
G1 X118.614 Y37.790 E17.51296
G1 X118.614 Y32.133 E17.59354
G1 X133.470 Y32.133 E17.80515
M204 S600
G1 X133.470 Y31.797 F7200.000
M204 S400
G1 X183.208 Y31.797 E18.51362 F3120.000
G1 X183.208 Y49.726 E18.76900
G1 X178.208 Y49.726 E18.84022 F3120.000
G1 X178.208 Y72.726 E19.16783
G1 X177.208 Y72.726 E19.18208
G1 X177.208 Y82.726 E19.32452
G1 X133.279 Y82.726 E19.95024
G1 X133.279 Y77.726 E20.02146
G1 X125.208 Y77.726 E20.13643
G1 X125.208 Y82.726 E20.20765
G1 X118.279 Y82.726 E20.30635
G1 X118.279 Y48.397 E20.79533
G1 X125.279 Y48.397 E20.89504
G1 X125.279 Y38.126 E21.04134
G1 X118.279 Y38.126 E21.14105
G1 X118.279 Y31.797 E21.23120
G1 X133.410 Y31.797 E21.44674
M204 S600
G1 X133.410 Y31.461 F7200.000
M204 S400
G1 X183.543 Y31.461 E22.16084 F2340.000
G1 X183.543 Y50.061 E22.42578
G1 X178.543 Y50.061 E22.49700 F2340.000
G1 X178.543 Y73.061 E22.82461
G1 X177.543 Y73.061 E22.83886
G1 X177.543 Y83.061 E22.98130
G1 X132.943 Y83.061 E23.61659
G1 X132.943 Y78.061 E23.68781
G1 X125.543 Y78.061 E23.79321
G1 X125.543 Y83.061 E23.86443
G1 X117.943 Y83.061 E23.97269
G1 X117.943 Y48.061 E24.47123
G1 X124.943 Y48.061 E24.57094
G1 X124.943 Y38.461 E24.70769
G1 X117.943 Y38.461 E24.80739
G1 X117.943 Y31.461 E24.90710
G1 X133.350 Y31.461 E25.12657
M204 S600
G1 X133.610 Y31.808 F7200.000
G1 X126.144 Y37.884 F7200.000
M204 S400
G1 X131.120 Y42.860 E25.22682 F4032.000
G1 X130.646 Y42.860 E25.23359
G1 X126.144 Y38.359 E25.32428
G1 X126.144 Y38.834 E25.33104
G1 X130.171 Y42.860 E25.41217
G1 X129.696 Y42.860 E25.41894
G1 X126.144 Y39.308 E25.49050
G1 X126.144 Y39.783 E25.49727
G1 X129.222 Y42.860 E25.55927
G1 X128.747 Y42.860 E25.56603
G1 X126.144 Y40.258 E25.61847
G1 X126.144 Y40.732 E25.62523
G1 X128.272 Y42.860 E25.66811
G1 X127.797 Y42.860 E25.67487
G1 X126.144 Y41.207 E25.70818
G1 X126.144 Y41.682 E25.71494
G1 X127.342 Y42.880 E25.73908
G1 X127.342 Y43.355 E25.74584
G1 X126.144 Y42.156 E25.76998
G1 X126.144 Y42.631 E25.77675
G1 X127.342 Y43.829 E25.80089
G1 X127.342 Y44.304 E25.80765
G1 X126.144 Y43.106 E25.83179
G1 X126.144 Y43.581 E25.83855
G1 X127.342 Y44.779 E25.86269
G1 X127.342 Y45.254 E25.86945
G1 X126.144 Y44.055 E25.89359
G1 X126.144 Y44.530 E25.90036
G1 X127.342 Y45.728 E25.92450
G1 X127.342 Y46.203 E25.93126
G1 X126.144 Y45.005 E25.95540
G1 X126.144 Y45.479 E25.96216
G1 X127.342 Y46.678 E25.98630
G1 X127.342 Y47.152 E25.99307
G1 X126.144 Y45.954 E26.01721
G1 X126.144 Y46.429 E26.02397
G1 X127.342 Y47.627 E26.04811
G1 X127.342 Y48.102 E26.05487
G1 X126.144 Y46.904 E26.07901
G1 X126.144 Y47.378 E26.08577
G1 X127.342 Y48.576 E26.10991
G1 X127.342 Y49.051 E26.11668
G1 X126.144 Y47.853 E26.14082
G1 X126.144 Y48.328 E26.14758
G1 X127.342 Y49.526 E26.17172
G1 X127.342 Y50.001 E26.17848
G1 X126.144 Y48.802 E26.20262
G1 X126.129 Y49.262 E26.20918
G1 X127.342 Y50.475 E26.23362
G1 X127.342 Y50.950 E26.24038
G1 X125.654 Y49.262 E26.27438
G1 X125.180 Y49.262 E26.28115
G1 X127.342 Y51.425 E26.32472
G1 X127.342 Y51.899 E26.33148
G1 X124.705 Y49.262 E26.38461
G1 X124.230 Y49.262 E26.39138
G1 X127.342 Y52.374 E26.45407
G1 X127.342 Y52.849 E26.46084
G1 X123.756 Y49.262 E26.53310
G1 X123.281 Y49.262 E26.53986
G1 X127.342 Y53.324 E26.62169
G1 X127.342 Y53.798 E26.62845
G1 X122.806 Y49.262 E26.71984
G1 X122.331 Y49.262 E26.72660
G1 X127.342 Y54.273 E26.82756
G1 X127.342 Y54.748 E26.83432
G1 X121.857 Y49.262 E26.94484
G1 X121.382 Y49.262 E26.95160
G1 X127.342 Y55.222 E27.07168
G1 X127.342 Y55.697 E27.07845
G1 X120.907 Y49.262 E27.20809
G1 X120.433 Y49.262 E27.21486
G1 X127.342 Y56.172 E27.35407
G1 X127.342 Y56.647 E27.36083
G1 X119.958 Y49.262 E27.50961
G1 X119.483 Y49.262 E27.51637
G1 X127.342 Y57.121 E27.67471
G1 X127.342 Y57.596 E27.68147
G1 X119.144 Y49.398 E27.84664
G1 X119.144 Y49.873 E27.85340
G1 X127.342 Y58.071 E28.01858
G1 X127.342 Y58.545 E28.02534
G1 X119.144 Y50.347 E28.19051
G1 X119.144 Y50.822 E28.19727
G1 X127.342 Y59.020 E28.36244
G1 X127.342 Y59.495 E28.36921
G1 X119.144 Y51.297 E28.53438
G1 X119.144 Y51.771 E28.54114
G1 X127.342 Y59.970 E28.70631
G1 X127.342 Y60.444 E28.71307
G1 X119.144 Y52.246 E28.87825
G1 X119.144 Y52.721 E28.88501
G1 X127.342 Y60.919 E29.05018
G1 X127.342 Y61.394 E29.05694
G1 X119.144 Y53.195 E29.22211
G1 X119.144 Y53.670 E29.22888
G1 X127.342 Y61.868 E29.39405
G1 X127.342 Y62.343 E29.40081
G1 X119.144 Y54.145 E29.56598
G1 X119.144 Y54.620 E29.57275
G1 X127.342 Y62.818 E29.73792
G1 X127.342 Y63.293 E29.74468
G1 X119.144 Y55.094 E29.90985
G1 X119.144 Y55.569 E29.91661
G1 X127.342 Y63.767 E30.08179
G1 X127.342 Y64.242 E30.08855
G1 X119.144 Y56.044 E30.25372
G1 X119.144 Y56.518 E30.26048
G1 X127.342 Y64.717 E30.42565
G1 X127.342 Y65.191 E30.43242
G1 X119.144 Y56.993 E30.59759
G1 X119.144 Y57.468 E30.60435
G1 X127.342 Y65.666 E30.76952
G1 X127.342 Y66.141 E30.77628
G1 X119.144 Y57.943 E30.94146
G1 X119.144 Y58.417 E30.94822
G1 X127.342 Y66.615 E31.11339
G1 X127.342 Y67.090 E31.12015
G1 X119.144 Y58.892 E31.28532
G1 X119.144 Y59.367 E31.29209
G1 X141.638 Y81.860 E31.74527
G1 X141.163 Y81.860 E31.75204
G1 X119.144 Y59.841 E32.19566
G1 X119.144 Y60.316 E32.20242
G1 X140.688 Y81.860 E32.63648
G1 X140.214 Y81.860 E32.64324
G1 X119.144 Y60.791 E33.06774
G1 X119.144 Y61.266 E33.07450
G1 X139.739 Y81.860 E33.48943
G1 X139.264 Y81.860 E33.49620
G1 X119.144 Y61.740 E33.90156
G1 X119.144 Y62.215 E33.90832
G1 X133.789 Y76.860 E34.20339
G1 X133.315 Y76.860 E34.21015
G1 X119.144 Y62.690 E34.49565
G1 X119.144 Y63.164 E34.50242
G1 X132.840 Y76.860 E34.77835
G1 X132.365 Y76.860 E34.78512
G1 X119.144 Y63.639 E35.05149
G1 X119.144 Y64.114 E35.05825
G1 X131.891 Y76.860 E35.31506
G1 X131.416 Y76.860 E35.32182
G1 X119.144 Y64.589 E35.56907
G1 X119.144 Y65.063 E35.57583
G1 X130.941 Y76.860 E35.81351
G1 X130.466 Y76.860 E35.82027
G1 X119.144 Y65.538 E36.04839
G1 X119.144 Y66.013 E36.05515
G1 X129.992 Y76.860 E36.27371
G1 X129.517 Y76.860 E36.28047
G1 X119.144 Y66.487 E36.48946
G1 X119.144 Y66.962 E36.49622
G1 X129.042 Y76.860 E36.69564
G1 X128.568 Y76.860 E36.70241
G1 X119.144 Y67.437 E36.89227
G1 X119.144 Y67.912 E36.89903
G1 X128.093 Y76.860 E37.07932
G1 X127.618 Y76.860 E37.08609
G1 X119.144 Y68.386 E37.25682
G1 X119.144 Y68.861 E37.26358
G1 X127.144 Y76.860 E37.42475
G1 X126.669 Y76.860 E37.43151
G1 X119.144 Y69.336 E37.58311
G1 X119.144 Y69.810 E37.58988
G1 X126.194 Y76.860 E37.73192
G1 X125.719 Y76.860 E37.73868
G1 X119.144 Y70.285 E37.87115
G1 X119.144 Y70.760 E37.87792
G1 X125.245 Y76.860 E38.00083
G1 X124.770 Y76.860 E38.00759
G1 X119.144 Y71.234 E38.12094
G1 X119.144 Y71.709 E38.12770
G1 X124.342 Y76.907 E38.23243
G1 X124.342 Y77.382 E38.23919
G1 X119.144 Y72.184 E38.34392
G1 X119.144 Y72.659 E38.35068
G1 X124.342 Y77.857 E38.45541
G1 X124.342 Y78.332 E38.46218
G1 X119.144 Y73.133 E38.56691
G1 X119.144 Y73.608 E38.57367
G1 X124.342 Y78.806 E38.67840
G1 X124.342 Y79.281 E38.68516
G1 X119.144 Y74.083 E38.78989
G1 X119.144 Y74.557 E38.79665
G1 X124.342 Y79.756 E38.90138
G1 X124.342 Y80.230 E38.90814
G1 X119.144 Y75.032 E39.01287
G1 X119.144 Y75.507 E39.01964
G1 X124.342 Y80.705 E39.12437
G1 X124.342 Y81.180 E39.13113
G1 X119.144 Y75.982 E39.23586
G1 X119.144 Y76.456 E39.24262
G1 X124.342 Y81.654 E39.34735
G1 X124.073 Y81.860 E39.35217
G1 X119.144 Y76.931 E39.45149
G1 X119.144 Y77.406 E39.45825
G1 X123.599 Y81.860 E39.54800
G1 X123.124 Y81.860 E39.55476
G1 X119.144 Y77.880 E39.63495
G1 X119.144 Y78.355 E39.64171
G1 X122.649 Y81.860 E39.71233
G1 X122.175 Y81.860 E39.71909
G1 X119.144 Y78.830 E39.78015
G1 X119.144 Y79.305 E39.78691
G1 X121.700 Y81.860 E39.83841
G1 X121.225 Y81.860 E39.84517
G1 X119.144 Y79.779 E39.88710
G1 X119.144 Y80.254 E39.89386
G1 X120.750 Y81.860 E39.92622
G1 X120.276 Y81.860 E39.93299
G1 X119.144 Y80.729 E39.95579
G1 X119.144 Y81.203 E39.96255
G1 X119.801 Y81.860 E39.97579
M204 S600
G1 X124.743 Y71.811 F7200.000
G1 X139.235 Y73.769 F7200.000
G1 X138.743 Y77.261 F7200.000
G1 X133.743 Y82.261 F7200.000
G1 X134.144 Y81.487 F7200.000
M204 S400
G1 X134.517 Y81.860 E39.98330 F4032.000
G1 X134.992 Y81.860 E39.99006
G1 X134.144 Y81.013 E40.00714
G1 X134.144 Y80.538 E40.01390
G1 X135.466 Y81.860 E40.04055
G1 X135.941 Y81.860 E40.04731
G1 X134.144 Y80.063 E40.08352
G1 X134.144 Y79.589 E40.09028
G1 X136.416 Y81.860 E40.13605
G1 X136.891 Y81.860 E40.14281
G1 X134.144 Y79.114 E40.19815
G1 X134.144 Y78.639 E40.20491
G1 X137.365 Y81.860 E40.26981
G1 X137.840 Y81.860 E40.27657
G1 X134.144 Y78.164 E40.35104
G1 X134.144 Y77.690 E40.35780
G1 X138.315 Y81.860 E40.44183
G1 X138.789 Y81.860 E40.44859
G1 X134.144 Y77.215 E40.54218
M204 S600
G1 X142.112 Y81.860 F7200.000
M204 S400
G1 X127.914 Y67.662 E40.82824 F4032.000
G1 X128.389 Y67.662 E40.83500
G1 X142.587 Y81.860 E41.12106
G1 X143.062 Y81.860 E41.12782
G1 X128.864 Y67.662 E41.41388
G1 X129.338 Y67.662 E41.42064
G1 X143.537 Y81.860 E41.70669
G1 X144.011 Y81.860 E41.71346
G1 X129.813 Y67.662 E41.99951
G1 X130.288 Y67.662 E42.00627
G1 X144.486 Y81.860 E42.29233
G1 X144.961 Y81.860 E42.29909
G1 X130.763 Y67.662 E42.58515
G1 X131.237 Y67.662 E42.59191
G1 X145.435 Y81.860 E42.87797
G1 X145.910 Y81.860 E42.88473
G1 X131.712 Y67.662 E43.17078
G1 X132.187 Y67.662 E43.17755
G1 X146.385 Y81.860 E43.46360
G1 X146.860 Y81.860 E43.47037
