; generated by Slic3r 1.2.9 on 2016-05-18 at 13:35:58

; external perimeters extrusion width = 0.40mm
; perimeters extrusion width = 0.67mm
; infill extrusion width = 0.67mm
; solid infill extrusion width = 0.67mm
; top infill extrusion width = 0.67mm
; support material extrusion width = 0.40mm

M107
M190 S60 ; set bed temperature
M104 S215 ; set temperature
G28 ; home all axes\
M203 X192 Y208 Z3 ; Speed limits to minimize skipped steps when moving really fast courtesy of forum.lulzbot.com user 1013
G1 Z5 F5000 ; lift nozzle

M109 S215 ; wait for temperature to be reached
G21 ; set units to millimeters
G90 ; use absolute coordinates
M82 ; use absolute distances for extrusion
G92 E0
G1 Z0.300 F6000.000
G1 E-1.00000 F1500.00000
G92 E0
G1 X127.890 Y25.685 F6000.000
G1 E1.00000 F1500.00000
G1 X129.038 Y23.576 E1.04269 F1440.000
G1 X130.811 Y21.958 E1.08537
G1 X133.016 Y21.006 E1.12806
G1 X134.749 Y20.796 E1.15909
G1 X259.249 Y20.796 E3.37243
G1 X261.617 Y21.194 E3.41511
G1 X263.726 Y22.342 E3.45780 F1440.000
G1 X265.344 Y24.115 E3.50049
G1 X266.296 Y26.320 E3.54317
G1 X266.506 Y28.053 E3.57421
G1 X266.506 Y93.553 E4.73865
G1 X266.108 Y95.921 E4.78134
G1 X264.960 Y98.030 E4.82402
G1 X263.187 Y99.648 E4.86671
G1 X260.982 Y100.600 E4.90940
G1 X259.249 Y100.810 E4.94043
G1 X134.749 Y100.810 E7.15376
G1 X132.381 Y100.412 E7.19645
G1 X130.272 Y99.264 E7.23914
G1 X128.654 Y97.491 E7.28182
G1 X127.702 Y95.286 E7.32451
G1 X127.492 Y93.553 E7.35554
G1 X127.492 Y28.053 E8.51999
G1 X127.880 Y25.744 E8.56161
G1 X128.298 Y25.816 F6000.000
G1 X128.308 Y25.757 E8.56268 F1440.000
G1 X129.453 Y23.727 E8.60411
G1 X131.214 Y22.200 E8.64554
G1 X133.384 Y21.353 E8.68697
G1 X134.749 Y21.215 E8.71135
G1 X259.249 Y21.215 E10.92468
G1 X261.545 Y21.612 E10.96611
G1 X263.575 Y22.757 E11.00754 F1440.000
G1 X265.102 Y24.517 E11.04897
G1 X265.949 Y26.688 E11.09039
G1 X266.087 Y28.053 E11.11478
G1 X266.087 Y93.553 E12.27922
G1 X265.690 Y95.849 E12.32065
G1 X264.545 Y97.879 E12.36208
G1 X262.784 Y99.406 E12.40350
G1 X260.614 Y100.253 E12.44493
G1 X259.249 Y100.391 E12.46931
G1 X134.749 Y100.391 E14.68265
G1 X132.453 Y99.994 E14.72407
G1 X130.423 Y98.848 E14.76550
G1 X128.896 Y97.088 E14.80693
G1 X128.049 Y94.918 E14.84836
G1 X127.911 Y93.553 E14.87274
G1 X127.911 Y28.053 E16.03718
G1 X128.288 Y25.876 E16.07647
G1 X128.706 Y25.950 F6000.000
G1 X128.727 Y25.831 E16.07862 F1440.000
G1 X129.869 Y23.884 E16.11875
G1 X131.614 Y22.452 E16.15888
G1 X134.749 Y21.634 E16.21648
G1 X259.249 Y21.634 E18.42982
G1 X261.471 Y22.031 E18.46995
G1 X263.418 Y23.172 E18.51007 F1440.000
G1 X264.850 Y24.918 E18.55020
G1 X265.668 Y28.053 E18.60781
G1 X265.668 Y93.553 E19.77225
G1 X265.271 Y95.775 E19.81238
G1 X264.129 Y97.722 E19.85251
G1 X262.384 Y99.154 E19.89264
G1 X259.249 Y99.972 E19.95024
G1 X134.749 Y99.972 E22.16358
G1 X132.527 Y99.575 E22.20370
G1 X130.580 Y98.433 E22.24383
G1 X129.148 Y96.688 E22.28396
G1 X128.330 Y93.553 E22.34157
G1 X128.330 Y28.053 E23.50601
G1 X128.695 Y26.009 E23.54292
G1 E22.54292 F1500.00000
G92 E0
G1 X134.949 Y28.253 F6000.000
G1 E1.00000 F1500.00000
G1 X259.049 Y28.253 E2.76770 F480.000
G1 X259.049 Y93.353 E3.69499
G1 X134.949 Y93.353 E5.46269 F480.000
G1 X134.949 Y28.313 E6.38912
G1 X135.295 Y28.453 F6000.000
G1 X135.326 Y28.630 F6000.000
G1 X258.672 Y28.630 E8.58193 F960.000
G1 X258.672 Y92.976 E9.72585
G1 X135.326 Y92.976 E11.91866 F960.000
G1 X135.326 Y28.690 E13.06152
G1 X135.745 Y29.049 F6000.000
G1 X258.253 Y29.049 E15.23943 F960.000
G1 X258.253 Y92.557 E16.36846
G1 X135.745 Y92.557 E18.54637 F960.000
G1 X135.745 Y29.109 E19.67433
G1 X136.164 Y29.468 F6000.000
G1 X257.834 Y29.468 E21.83736 F960.000
G1 X257.834 Y92.138 E22.95149
G1 X136.164 Y92.138 E25.11451 F960.000
G1 X136.164 Y29.528 E26.22758
G1 X250.892 Y91.719 F6000.000
G1 X136.583 Y91.719 E28.25974 F960.000
G1 X136.583 Y29.887 E29.35898
G1 X257.415 Y29.887 E31.50710
G1 X257.415 Y91.719 E32.60634
G1 X250.952 Y91.719 E32.72125 F960.000
G1 X257.189 Y30.331 F6000.000
G1 X256.971 Y30.113 E32.72672 F720.000
G1 X256.379 Y30.113 E32.73726
G1 X257.189 Y30.923 E32.75764
G1 X257.189 Y31.516 E32.76818
G1 X255.786 Y30.113 E32.80346
G1 X255.194 Y30.113 E32.81399
G1 X257.189 Y32.108 E32.86418
G1 X257.189 Y32.701 E32.87472
G1 X254.601 Y30.113 E32.93980
G1 X254.008 Y30.113 E32.95034
G1 X257.189 Y33.294 E33.03033
G1 X257.189 Y33.886 E33.04086
G1 X253.416 Y30.113 E33.13575
G1 X252.823 Y30.113 E33.14629
G1 X257.189 Y34.479 E33.25608
G1 X257.189 Y35.071 E33.26662
G1 X252.231 Y30.113 E33.39132
G1 X251.638 Y30.113 E33.40185
G1 X257.189 Y35.664 E33.54145
G1 X257.189 Y36.256 E33.55199
G1 X251.046 Y30.113 E33.70649
G1 X250.453 Y30.113 E33.71703
G1 X257.189 Y36.849 E33.88643
G1 X257.189 Y37.441 E33.89697
G1 X249.860 Y30.113 E34.08127
G1 X249.268 Y30.113 E34.09181
G1 X257.189 Y38.034 E34.29101
G1 X257.189 Y38.627 E34.30155
G1 X248.675 Y30.113 E34.51566
G1 X248.083 Y30.113 E34.52620
G1 X257.189 Y39.219 E34.75521
G1 X257.189 Y39.812 E34.76575
G1 X247.490 Y30.113 E35.00966
G1 X246.898 Y30.113 E35.02020
G1 X257.189 Y40.404 E35.27902
G1 X257.189 Y40.997 E35.28956
G1 X246.305 Y30.113 E35.56327
G1 X245.713 Y30.113 E35.57381
G1 X257.189 Y41.589 E35.86243
G1 X257.189 Y42.182 E35.87297
G1 X245.120 Y30.113 E36.17650
G1 X244.527 Y30.113 E36.18703
G1 X257.189 Y42.775 E36.50546
G1 X257.189 Y43.367 E36.51600
G1 X243.935 Y30.113 E36.84933
G1 X243.342 Y30.113 E36.85986
G1 X257.189 Y43.960 E37.20810
G1 X257.189 Y44.552 E37.21863
G1 X242.750 Y30.113 E37.58177
G1 X242.157 Y30.113 E37.59230
G1 X257.189 Y45.145 E37.97034
G1 X257.189 Y45.737 E37.98088
G1 X241.565 Y30.113 E38.37382
G1 X240.972 Y30.113 E38.38435
G1 X257.189 Y46.330 E38.79220
G1 X257.189 Y46.922 E38.80273
G1 X240.379 Y30.113 E39.22548
G1 X239.787 Y30.113 E39.23601
G1 X257.189 Y47.515 E39.67366
G1 X257.189 Y48.108 E39.68420
G1 X239.194 Y30.113 E40.13675
G1 X238.602 Y30.113 E40.14728
G1 X257.189 Y48.700 E40.61474
G1 X257.189 Y49.293 E40.62527
G1 X238.009 Y30.113 E41.10763
G1 X237.417 Y30.113 E41.11816
G1 X257.189 Y49.885 E41.61542
G1 X257.189 Y50.478 E41.62596
G1 X236.824 Y30.113 E42.13812
G1 X236.231 Y30.113 E42.14865
G1 X257.189 Y51.070 E42.67571
G1 X257.189 Y51.663 E42.68625
G1 X235.639 Y30.113 E43.22821
G1 X235.046 Y30.113 E43.23875
G1 X257.189 Y52.256 E43.79562
G1 X257.189 Y52.848 E43.80616
G1 X234.454 Y30.113 E44.37792
G1 X233.861 Y30.113 E44.38846
G1 X257.189 Y53.441 E44.97513
G1 X257.189 Y54.033 E44.98567
G1 X233.269 Y30.113 E45.58724
G1 X232.676 Y30.113 E45.59778
G1 X257.189 Y54.626 E46.21425
G1 X257.189 Y55.218 E46.22479
G1 X232.084 Y30.113 E46.85617
G1 X231.491 Y30.113 E46.86671
G1 X257.189 Y55.811 E47.51299
G1 X257.189 Y56.403 E47.52353
G1 X230.898 Y30.113 E48.18471
G1 X230.306 Y30.113 E48.19525
G1 X257.189 Y56.996 E48.87133
G1 X257.189 Y57.589 E48.88187
G1 X229.713 Y30.113 E49.57286
G1 X229.121 Y30.113 E49.58339
G1 X257.189 Y58.181 E50.28928
G1 X257.189 Y58.774 E50.29982
G1 X228.528 Y30.113 E51.02061
G1 X227.936 Y30.113 E51.03115
G1 X257.189 Y59.366 E51.76685
G1 X257.189 Y59.959 E51.77738
G1 X227.343 Y30.113 E52.52798
G1 X226.750 Y30.113 E52.53852
G1 X257.189 Y60.551 E53.30402
G1 X257.189 Y61.144 E53.31456
G1 X226.158 Y30.113 E54.09496
G1 X225.565 Y30.113 E54.10549
G1 X257.189 Y61.737 E54.90080
G1 X257.189 Y62.329 E54.91134
G1 X224.973 Y30.113 E55.72154
G1 X224.380 Y30.113 E55.73208
G1 X257.189 Y62.922 E56.55719
G1 X257.189 Y63.514 E56.56773
G1 X223.788 Y30.113 E57.40774
G1 X223.195 Y30.113 E57.41828
G1 X257.189 Y64.107 E58.27319
G1 X257.189 Y64.699 E58.28373
G1 X222.603 Y30.113 E59.15355
G1 X222.010 Y30.113 E59.16408
G1 X257.189 Y65.292 E60.04880
G1 X257.189 Y65.884 E60.05934
G1 X221.417 Y30.113 E60.95896
G1 X220.825 Y30.113 E60.96950
G1 X257.189 Y66.477 E61.88402
G1 X257.189 Y67.070 E61.89456
G1 X220.232 Y30.113 E62.82399
G1 X219.640 Y30.113 E62.83453
G1 X257.189 Y67.662 E63.77885
G1 X257.189 Y68.255 E63.78939
G1 X219.047 Y30.113 E64.74862
G1 X218.455 Y30.113 E64.75916
G1 X257.189 Y68.847 E65.73330
G1 X257.189 Y69.440 E65.74383
G1 X217.862 Y30.113 E66.73287
G1 X217.269 Y30.113 E66.74341
G1 X257.189 Y70.032 E67.74735
G1 X257.189 Y70.625 E67.75788
G1 X216.677 Y30.113 E68.77672
G1 X216.084 Y30.113 E68.78726
G1 X257.189 Y71.218 E69.82101
G1 X257.189 Y71.810 E69.83154
G1 X215.492 Y30.113 E70.88019
G1 X214.899 Y30.113 E70.89073
G1 X257.189 Y72.403 E71.95427
G1 X257.189 Y72.995 E71.96481
G1 X214.307 Y30.113 E73.04326
G1 X213.714 Y30.113 E73.05380
G1 X257.189 Y73.588 E74.14715
G1 X257.189 Y74.180 E74.15769
G1 X213.122 Y30.113 E75.26595
G1 X212.529 Y30.113 E75.27649
G1 X257.189 Y74.773 E76.39964
G1 X257.189 Y75.365 E76.41018
G1 X211.936 Y30.113 E77.54824
G1 X211.344 Y30.113 E77.55878
G1 X257.189 Y75.958 E78.71174
G1 X257.189 Y76.551 E78.72228
G1 X210.751 Y30.113 E79.89015
G1 X210.159 Y30.113 E79.90068
G1 X257.189 Y77.143 E81.08345
G1 X257.189 Y77.736 E81.09399
G1 X209.566 Y30.113 E82.29166
G1 X208.974 Y30.113 E82.30220
G1 X257.189 Y78.328 E83.51477
G1 X257.189 Y78.921 E83.52531
G1 X208.381 Y30.113 E84.75278
G1 X207.788 Y30.113 E84.76332
G1 X257.189 Y79.513 E86.00570
G1 X257.189 Y80.106 E86.01623
G1 X207.196 Y30.113 E87.27351
G1 X206.603 Y30.113 E87.28405
G1 X257.189 Y80.699 E88.55623
G1 X257.189 Y81.291 E88.56677
G1 X206.011 Y30.113 E89.85386
G1 X205.418 Y30.113 E89.86439
G1 X257.189 Y81.884 E91.16638
G1 X257.189 Y82.476 E91.17692
G1 X204.826 Y30.113 E92.49381
G1 X204.233 Y30.113 E92.50435
G1 X257.189 Y83.069 E93.83614
G1 X257.189 Y83.661 E93.84668
G1 X203.641 Y30.113 E95.19337
G1 X203.048 Y30.113 E95.20391
G1 X257.189 Y84.254 E96.56551
G1 X257.189 Y84.846 E96.57604
G1 X202.455 Y30.113 E97.95254
G1 X201.863 Y30.113 E97.96308
G1 X257.189 Y85.439 E99.35448
G1 X257.189 Y86.032 E99.36502
G1 X201.270 Y30.113 E100.77133
G1 X200.678 Y30.113 E100.78186
G1 X257.189 Y86.624 E102.20307
G1 X257.189 Y87.217 E102.21361
G1 X200.085 Y30.113 E103.64972
G1 X199.493 Y30.113 E103.66025
G1 X257.189 Y87.809 E105.11127
G1 X257.189 Y88.402 E105.12180
G1 X198.900 Y30.113 E106.58772
G1 X198.307 Y30.113 E106.59826
G1 X257.189 Y88.994 E108.07907
G1 X257.189 Y89.587 E108.08961
G1 X197.715 Y30.113 E109.58533
G1 X197.122 Y30.113 E109.59587
G1 X257.189 Y90.180 E111.10649
G1 X257.189 Y90.772 E111.11703
G1 X196.530 Y30.113 E112.64255
G1 X195.937 Y30.113 E112.65309
G1 X257.189 Y91.365 E114.19351
G1 X256.724 Y91.493 E114.20208
G1 X195.345 Y30.113 E115.74573
G1 X194.752 Y30.113 E115.75627
G1 X256.132 Y91.493 E117.29992
G1 X255.539 Y91.493 E117.31045
G1 X194.160 Y30.113 E118.85410
G1 X193.567 Y30.113 E118.86464
G1 X254.947 Y91.493 E120.40829
G1 X254.354 Y91.493 E120.41883
G1 X192.974 Y30.113 E121.96247
G1 X192.382 Y30.113 E121.97301
G1 X253.762 Y91.493 E123.51666
G1 X253.169 Y91.493 E123.52720
G1 X191.789 Y30.113 E125.07085
G1 X191.197 Y30.113 E125.08138
G1 X252.577 Y91.493 E126.62503
G1 X251.984 Y91.493 E126.63557
G1 X190.604 Y30.113 E128.17922
G1 X190.012 Y30.113 E128.18976
G1 X251.391 Y91.493 E129.73340
G1 X250.799 Y91.493 E129.74394
G1 X189.419 Y30.113 E131.28759
G1 X188.826 Y30.113 E131.29813
G1 X250.206 Y91.493 E132.84178
G1 X249.614 Y91.493 E132.85231
G1 X188.234 Y30.113 E134.39596
G1 X187.641 Y30.113 E134.40650
G1 X249.021 Y91.493 E135.95015
G1 X248.429 Y91.493 E135.96069
G1 X187.049 Y30.113 E137.50433
G1 X186.456 Y30.113 E137.51487
G1 X247.836 Y91.493 E139.05852
G1 X247.243 Y91.493 E139.06906
G1 X185.864 Y30.113 E140.61271
G1 X185.271 Y30.113 E140.62324
G1 X246.651 Y91.493 E142.16689
G1 X246.058 Y91.493 E142.17743
G1 X184.679 Y30.113 E143.72108
G1 X184.086 Y30.113 E143.73162
G1 X245.466 Y91.493 E145.27527
G1 X244.873 Y91.493 E145.28580
G1 X183.493 Y30.113 E146.82945
G1 X182.901 Y30.113 E146.83999
G1 X244.281 Y91.493 E148.38364
G1 X243.688 Y91.493 E148.39418
G1 X182.308 Y30.113 E149.93782
G1 X181.716 Y30.113 E149.94836
G1 X243.096 Y91.493 E151.49201
G1 X242.503 Y91.493 E151.50255
G1 X181.123 Y30.113 E153.04620
G1 X180.531 Y30.113 E153.05673
G1 X241.910 Y91.493 E154.60038
G1 X241.318 Y91.493 E154.61092
G1 X179.938 Y30.113 E156.15457
G1 X179.345 Y30.113 E156.16511
G1 X240.725 Y91.493 E157.70875
G1 X240.133 Y91.493 E157.71929
G1 X178.753 Y30.113 E159.26294
G1 X178.160 Y30.113 E159.27348
G1 X239.540 Y91.493 E160.81713
G1 X238.948 Y91.493 E160.82766
G1 X177.568 Y30.113 E162.37131
G1 X176.975 Y30.113 E162.38185
G1 X238.355 Y91.493 E163.92550
G1 X237.762 Y91.493 E163.93604
G1 X176.383 Y30.113 E165.47968
G1 X175.790 Y30.113 E165.49022
G1 X237.170 Y91.493 E167.03387
G1 X236.577 Y91.493 E167.04441
G1 X175.198 Y30.113 E168.58806
G1 X174.605 Y30.113 E168.59859
G1 X235.985 Y91.493 E170.14224
G1 X235.392 Y91.493 E170.15278
G1 X174.012 Y30.113 E171.69643
G1 X173.420 Y30.113 E171.70697
G1 X234.800 Y91.493 E173.25061
G1 X234.207 Y91.493 E173.26115
G1 X172.827 Y30.113 E174.80480
G1 X172.235 Y30.113 E174.81534
G1 X233.615 Y91.493 E176.35899
G1 X233.022 Y91.493 E176.36952
G1 X171.642 Y30.113 E177.91317
G1 X171.050 Y30.113 E177.92371
G1 X232.429 Y91.493 E179.46736
G1 X231.837 Y91.493 E179.47790
G1 X170.457 Y30.113 E181.02155
G1 X169.864 Y30.113 E181.03208
G1 X231.244 Y91.493 E182.57573
G1 X230.652 Y91.493 E182.58627
G1 X169.272 Y30.113 E184.12992
G1 X168.679 Y30.113 E184.14046
G1 X230.059 Y91.493 E185.68410
G1 X229.467 Y91.493 E185.69464
G1 X168.087 Y30.113 E187.23829
G1 X167.494 Y30.113 E187.24883
G1 X228.874 Y91.493 E188.79248
G1 X228.281 Y91.493 E188.80301
G1 X166.902 Y30.113 E190.34666
G1 X166.309 Y30.113 E190.35720
G1 X227.689 Y91.493 E191.90085
G1 X227.096 Y91.493 E191.91139
G1 X165.717 Y30.113 E193.45503
G1 X165.124 Y30.113 E193.46557
G1 X226.504 Y91.493 E195.00922
G1 X225.911 Y91.493 E195.01976
G1 X164.531 Y30.113 E196.56341
G1 X163.939 Y30.113 E196.57394
G1 X225.319 Y91.493 E198.11759
G1 X224.726 Y91.493 E198.12813
G1 X163.346 Y30.113 E199.67178
G1 X162.754 Y30.113 E199.68232
G1 X224.134 Y91.493 E201.22596
G1 X223.541 Y91.493 E201.23650
G1 X162.161 Y30.113 E202.78015
G1 X161.569 Y30.113 E202.79069
G1 X222.948 Y91.493 E204.33434
G1 X222.356 Y91.493 E204.34487
G1 X160.976 Y30.113 E205.88852
G1 X160.383 Y30.113 E205.89906
G1 X221.763 Y91.493 E207.44271
G1 X221.171 Y91.493 E207.45325
G1 X159.791 Y30.113 E208.99690
G1 X159.198 Y30.113 E209.00743
G1 X220.578 Y91.493 E210.55108
G1 X219.986 Y91.493 E210.56162
G1 X158.606 Y30.113 E212.10527
G1 X158.013 Y30.113 E212.11580
G1 X219.393 Y91.493 E213.65945
G1 X218.800 Y91.493 E213.66999
G1 X157.421 Y30.113 E215.21364
G1 X156.828 Y30.113 E215.22418
G1 X218.208 Y91.493 E216.76783
G1 X217.615 Y91.493 E216.77836
G1 X156.236 Y30.113 E218.32201
G1 X155.643 Y30.113 E218.33255
G1 X217.023 Y91.493 E219.87620
G1 X216.430 Y91.493 E219.88674
G1 X155.050 Y30.113 E221.43038
G1 X154.458 Y30.113 E221.44092
G1 X215.838 Y91.493 E222.98457
G1 X215.245 Y91.493 E222.99511
G1 X153.865 Y30.113 E224.53876
G1 X153.273 Y30.113 E224.54929
G1 X214.653 Y91.493 E226.09294
G1 X214.060 Y91.493 E226.10348
G1 X152.680 Y30.113 E227.64713
G1 X152.088 Y30.113 E227.65767
G1 X213.467 Y91.493 E229.20131
G1 X212.875 Y91.493 E229.21185
G1 X151.495 Y30.113 E230.75550
G1 X150.902 Y30.113 E230.76604
G1 X212.282 Y91.493 E232.30969
G1 X211.690 Y91.493 E232.32022
G1 X150.310 Y30.113 E233.86387
G1 X149.717 Y30.113 E233.87441
G1 X211.097 Y91.493 E235.41806
G1 X210.505 Y91.493 E235.42860
G1 X149.125 Y30.113 E236.97224
G1 X148.532 Y30.113 E236.98278
G1 X209.912 Y91.493 E238.52643
G1 X209.319 Y91.493 E238.53697
G1 X147.940 Y30.113 E240.08062
G1 X147.347 Y30.113 E240.09115
G1 X208.727 Y91.493 E241.63480
G1 X208.134 Y91.493 E241.64534
G1 X146.755 Y30.113 E243.18899
G1 X146.162 Y30.113 E243.19953
G1 X207.542 Y91.493 E244.74318
G1 X206.949 Y91.493 E244.75371
G1 X145.569 Y30.113 E246.29736
G1 X144.977 Y30.113 E246.30790
G1 X206.357 Y91.493 E247.85155
G1 X205.764 Y91.493 E247.86208
G1 X144.384 Y30.113 E249.40573
G1 X143.792 Y30.113 E249.41627
G1 X205.172 Y91.493 E250.95992
G1 X204.579 Y91.493 E250.97046
G1 X143.199 Y30.113 E252.51411
G1 X142.607 Y30.113 E252.52464
G1 X203.986 Y91.493 E254.06829
G1 X203.394 Y91.493 E254.07883
G1 X142.014 Y30.113 E255.62248
G1 X141.421 Y30.113 E255.63302
G1 X202.801 Y91.493 E257.17666
G1 X202.209 Y91.493 E257.18720
G1 X140.829 Y30.113 E258.73085
