; generated by Slic3r 1.2.9 on 2016-04-28 at 13:01:11

; external perimeters extrusion width = 0.40mm
; perimeters extrusion width = 0.67mm
; infill extrusion width = 0.67mm
; solid infill extrusion width = 0.67mm
; top infill extrusion width = 0.67mm

M107
M190 S60 ; set bed temperature
M104 S215 ; set temperature
G28 ; home all axes\
M203 X192 Y208 Z3 ; Speed limits to minimize skipped steps when moving really fast courtesy of forum.lulzbot.com user 1013
G1 Z5 F5000 ; lift nozzle

M109 S215 ; wait for temperature to be reached
G21 ; set units to millimeters
G90 ; use absolute coordinates
M82 ; use absolute distances for extrusion
G92 E0
G1 Z0.300 F6000.000
G1 E-1.00000 F1500.00000
G92 E0
G1 X119.978 Y29.246 F6000.000
G1 E1.00000 F1500.00000
G1 X121.126 Y27.138 E1.04269 F1440.000
G1 X122.900 Y25.519 E1.08537
G1 X125.419 Y24.498 E1.13370
G1 X132.118 Y23.162 E1.25514
G1 X132.938 Y23.047 E1.26986
G1 X133.439 Y23.006 E1.27880
G1 X134.039 Y22.981 E1.28948
G1 X260.035 Y23.018 E3.52940
G1 X261.108 Y23.081 E3.54850 F1440.000
G1 X262.263 Y23.267 E3.56931
G1 X262.748 Y23.387 E3.57819
G1 X263.859 Y23.757 E3.59900
G1 X264.604 Y24.081 E3.61345
G1 X266.666 Y25.067 E3.65408
G1 X268.631 Y26.446 E3.69677
G1 X270.039 Y28.391 E3.73945
G1 X270.794 Y31.614 E3.79830
G1 X270.794 Y103.614 E5.07830
G1 X270.397 Y105.982 E5.12099
G1 X269.248 Y108.091 E5.16367
G1 X266.664 Y110.163 E5.22256
G1 X264.603 Y111.147 E5.26315
G1 X263.864 Y111.469 E5.27749
G1 X262.756 Y111.839 E5.29826
G1 X262.272 Y111.959 E5.30713
G1 X261.118 Y112.146 E5.32790
G1 X260.622 Y112.186 E5.33676
G1 X260.039 Y112.210 E5.34712
G1 X134.039 Y112.245 E7.58712
G1 X132.939 Y112.179 E7.60672
G1 X132.121 Y112.064 E7.62141
G1 X125.421 Y110.731 E7.74284
G1 X123.176 Y109.880 E7.78553
G1 X121.332 Y108.342 E7.82822
G1 X120.091 Y106.287 E7.87090
G1 X119.581 Y103.614 E7.91927
G1 X119.581 Y31.614 E9.19927
G1 X119.968 Y29.306 E9.24089
G1 X120.386 Y29.378 F6000.000
G1 X120.397 Y29.318 E9.24197 F1440.000
G1 X121.542 Y27.289 E9.28340
G1 X123.302 Y25.762 E9.32482
G1 X125.501 Y24.909 E9.36675
G1 X132.200 Y23.573 E9.48819
G1 X132.973 Y23.465 E9.50207
G1 X133.474 Y23.423 E9.51100
G1 X134.039 Y23.400 E9.52107
G1 X260.035 Y23.437 E11.76099
G1 X261.074 Y23.498 E11.77950 F1440.000
G1 X262.163 Y23.674 E11.79911
G1 X262.648 Y23.793 E11.80799
G1 X263.694 Y24.142 E11.82759
G1 X264.423 Y24.459 E11.84172
G1 X266.485 Y25.445 E11.88235
G1 X268.386 Y26.793 E11.92378
G1 X269.724 Y28.701 E11.96521
G1 X270.375 Y31.614 E12.01828
G1 X270.375 Y103.614 E13.29828
G1 X269.978 Y105.911 E13.33970
G1 X268.833 Y107.940 E13.38113
G1 X266.483 Y109.785 E13.43424
G1 X264.423 Y110.769 E13.47483
G1 X263.700 Y111.084 E13.48885
G1 X262.656 Y111.432 E13.50842
G1 X262.171 Y111.552 E13.51729
G1 X261.085 Y111.729 E13.53686
G1 X260.588 Y111.769 E13.54572
G1 X260.039 Y111.791 E13.55548
G1 X134.039 Y111.826 E15.79548
G1 X132.974 Y111.762 E15.81446
G1 X132.202 Y111.654 E15.82831
G1 X125.503 Y110.321 E15.94974
G1 X123.328 Y109.483 E15.99117
G1 X121.561 Y107.964 E16.03260
G1 X120.407 Y105.940 E16.07403
G1 X120.000 Y103.614 E16.11599
G1 X120.000 Y31.614 E17.39599
G1 X120.376 Y29.437 E17.43528
G1 X120.794 Y29.512 F6000.000
G1 X120.815 Y29.392 E17.43743 F1440.000
G1 X121.957 Y27.445 E17.47756
G1 X123.702 Y26.013 E17.51769
G1 X125.583 Y25.319 E17.55333
G1 X132.282 Y23.984 E17.67477
G1 X133.007 Y23.882 E17.68779
G1 X134.039 Y23.819 E17.70617
G1 X260.035 Y23.856 E19.94610
G1 X261.041 Y23.916 E19.96401 F1440.000
G1 X262.063 Y24.081 E19.98242
G1 X262.548 Y24.200 E19.99130
G1 X263.530 Y24.528 E20.00971
G1 X264.243 Y24.837 E20.02352
G1 X266.305 Y25.823 E20.06414
G1 X268.139 Y27.139 E20.10427
G1 X269.403 Y29.008 E20.14440
G1 X269.956 Y31.614 E20.19176
G1 X269.956 Y103.614 E21.47176
G1 X269.559 Y105.836 E21.51189
G1 X268.418 Y107.784 E21.55202
G1 X266.303 Y109.407 E21.59941
G1 X264.242 Y110.391 E21.64000
G1 X263.535 Y110.698 E21.65371
G1 X262.555 Y111.026 E21.67208
G1 X262.071 Y111.145 E21.68095
G1 X261.051 Y111.311 E21.69932
G1 X260.554 Y111.351 E21.70818
G1 X260.039 Y111.372 E21.71735
G1 X134.039 Y111.408 E23.95735
G1 X133.008 Y111.344 E23.97571
G1 X132.284 Y111.243 E23.98871
G1 X125.585 Y109.910 E24.11014
G1 X123.483 Y109.087 E24.15027
G1 X121.796 Y107.587 E24.19040
G1 X120.732 Y105.596 E24.23053
G1 X120.418 Y103.614 E24.26620
G1 X120.418 Y31.614 E25.54620
G1 X120.783 Y29.571 E25.58311
G1 X122.020 Y29.619 F6000.000
G1 X124.842 Y26.797 E25.65405 F1440.000
G1 X129.544 Y26.797 E25.73764
G1 X129.660 Y26.763 E25.73981
G1 X132.242 Y25.080 E25.79459
G1 X132.943 Y25.460 E25.80877
G1 X133.063 Y25.485 E25.81094 F1440.000
G1 X133.838 Y25.421 E25.82478
G1 X134.236 Y25.421 E25.83185
G1 X135.134 Y25.495 E25.84786
G1 X135.526 Y25.560 E25.85493
G1 X136.399 Y25.781 E25.87094
G1 X136.775 Y25.910 E25.87801
G1 X137.600 Y26.271 E25.89402
G1 X137.950 Y26.460 E25.90109
G1 X138.414 Y26.763 E25.91094
G1 X138.531 Y26.797 E25.91311
G1 X255.574 Y26.803 E27.99387
G1 X255.689 Y26.770 E27.99600
G1 X256.171 Y26.463 E28.00616
G1 X256.516 Y26.281 E28.01308
G1 X257.332 Y25.931 E28.02887
G1 X257.701 Y25.807 E28.03579
G1 X258.563 Y25.593 E28.05159
G1 X258.947 Y25.530 E28.05851
G1 X259.833 Y25.458 E28.07430
G1 X260.222 Y25.457 E28.08122
G1 X261.108 Y25.528 E28.09702
G1 X261.492 Y25.590 E28.10393
G1 X262.355 Y25.802 E28.11973
G1 X262.724 Y25.925 E28.12665
G1 X263.542 Y26.273 E28.14245
G1 X263.886 Y26.454 E28.14936
G1 X264.376 Y26.764 E28.15968
G1 X264.491 Y26.797 E28.16179
G1 X265.533 Y26.797 E28.18032
G1 X268.354 Y29.619 E28.25126
G1 X268.354 Y105.610 E29.60221
G1 X265.533 Y108.431 E29.67315
G1 X264.489 Y108.431 E29.69170
G1 X264.375 Y108.465 E29.69381
G1 X263.889 Y108.773 E29.70405
G1 X263.545 Y108.953 E29.71095
G1 X262.729 Y109.301 E29.72672
G1 X262.360 Y109.424 E29.73363
G1 X261.499 Y109.636 E29.74940
G1 X261.116 Y109.699 E29.75630
G1 X260.232 Y109.770 E29.77207
G1 X259.843 Y109.770 E29.77898
G1 X258.959 Y109.699 E29.79475
G1 X258.575 Y109.636 E29.80166
G1 X257.715 Y109.424 E29.81742
G1 X257.346 Y109.301 E29.82433
G1 X256.530 Y108.953 E29.84010
G1 X256.186 Y108.772 E29.84701
G1 X255.699 Y108.465 E29.85724
G1 X255.585 Y108.431 E29.85936
G1 X138.528 Y108.431 E31.94037
G1 X138.412 Y108.466 E31.94253
G1 X137.946 Y108.769 E31.95240
G1 X137.597 Y108.958 E31.95947
G1 X136.772 Y109.318 E31.97546
G1 X136.396 Y109.446 E31.98252
G1 X135.525 Y109.666 E31.99851
G1 X135.133 Y109.732 E32.00557
G1 X134.236 Y109.806 E32.02156
G1 X133.839 Y109.806 E32.02863
G1 X132.942 Y109.732 E32.04462
G1 X132.550 Y109.667 E32.05168
G1 X131.678 Y109.446 E32.06768
G1 X131.302 Y109.318 E32.07473
G1 X130.478 Y108.958 E32.09073
G1 X130.129 Y108.769 E32.09779
G1 X129.663 Y108.466 E32.10766
G1 X129.546 Y108.431 E32.10982
G1 X124.842 Y108.431 E32.19346
G1 X122.020 Y105.610 E32.26440
G1 X122.020 Y29.679 E33.61428
G1 X122.439 Y29.793 F6000.000
G1 X125.016 Y27.216 E33.67905 F1440.000
G1 X129.668 Y27.216 E33.76177
G1 X129.785 Y27.181 E33.76393
G1 X132.262 Y25.567 E33.81649
G1 X132.854 Y25.887 E33.82846 F1440.000
G1 X132.973 Y25.912 E33.83063
G1 X133.856 Y25.839 E33.84638
G1 X134.219 Y25.839 E33.85284
G1 X135.082 Y25.911 E33.86823
G1 X135.440 Y25.970 E33.87469
G1 X136.280 Y26.183 E33.89008
G1 X136.623 Y26.300 E33.89653
G1 X137.416 Y26.648 E33.91193
G1 X137.736 Y26.820 E33.91838
G1 X138.290 Y27.182 E33.93014
G1 X138.407 Y27.216 E33.93231
G1 X255.696 Y27.222 E36.01745
G1 X255.811 Y27.189 E36.01958
G1 X256.382 Y26.826 E36.03161
G1 X256.696 Y26.660 E36.03792
G1 X257.482 Y26.323 E36.05312
G1 X257.818 Y26.210 E36.05944
G1 X258.648 Y26.004 E36.07463
G1 X258.999 Y25.946 E36.08095
G1 X259.850 Y25.876 E36.09614
G1 X260.206 Y25.876 E36.10246
G1 X261.058 Y25.944 E36.11765
G1 X261.408 Y26.001 E36.12397
G1 X262.238 Y26.205 E36.13916
G1 X262.575 Y26.317 E36.14548
G1 X263.362 Y26.652 E36.16067
G1 X263.676 Y26.817 E36.16699
G1 X264.255 Y27.183 E36.17916
G1 X264.369 Y27.216 E36.18127
G1 X265.359 Y27.216 E36.19887
G1 X267.936 Y29.793 E36.26365
G1 X267.936 Y105.436 E37.60842
G1 X265.359 Y108.013 E37.67320
G1 X264.368 Y108.013 E37.69082
G1 X264.254 Y108.046 E37.69293
G1 X263.679 Y108.410 E37.70503
G1 X263.365 Y108.574 E37.71133
G1 X262.580 Y108.909 E37.72650
G1 X262.244 Y109.021 E37.73281
G1 X261.415 Y109.226 E37.74798
G1 X261.065 Y109.283 E37.75428
G1 X260.215 Y109.351 E37.76945
G1 X259.860 Y109.351 E37.77575
G1 X259.009 Y109.283 E37.79093
G1 X258.659 Y109.226 E37.79723
G1 X257.831 Y109.021 E37.81240
G1 X257.495 Y108.909 E37.81870
G1 X256.710 Y108.574 E37.83387
G1 X256.396 Y108.409 E37.84018
G1 X255.821 Y108.046 E37.85227
G1 X255.707 Y108.013 E37.85439
G1 X138.404 Y108.013 E39.93976
G1 X138.287 Y108.047 E39.94193
G1 X137.732 Y108.408 E39.95370
G1 X137.413 Y108.581 E39.96015
G1 X136.620 Y108.927 E39.97553
G1 X136.277 Y109.044 E39.98198
G1 X135.439 Y109.256 E39.99735
G1 X135.081 Y109.316 E40.00380
G1 X134.219 Y109.387 E40.01918
G1 X133.856 Y109.387 E40.02563
G1 X132.994 Y109.316 E40.04101
G1 X132.636 Y109.256 E40.04746
G1 X131.797 Y109.044 E40.06284
G1 X131.454 Y108.927 E40.06928
G1 X130.662 Y108.581 E40.08466
G1 X130.343 Y108.409 E40.09111
G1 X129.787 Y108.047 E40.10288
G1 X129.671 Y108.013 E40.10505
G1 X125.016 Y108.013 E40.18780
G1 X122.439 Y105.436 E40.25258
G1 X122.439 Y29.853 E41.59629
G1 X122.858 Y29.966 F6000.000
G1 X125.189 Y27.635 E41.65489 F1440.000
G1 X129.793 Y27.635 E41.73673
G1 X129.909 Y27.600 E41.73890
G1 X132.281 Y26.054 E41.78924
G1 X132.781 Y26.325 E41.79935
G1 X132.919 Y26.348 E41.80183 F1440.000
G1 X133.873 Y26.258 E41.81886
G1 X134.202 Y26.258 E41.82471
G1 X135.030 Y26.327 E41.83948
G1 X135.354 Y26.381 E41.84533
G1 X136.160 Y26.585 E41.86010
G1 X136.471 Y26.691 E41.86594
G1 X137.232 Y27.024 E41.88072
G1 X137.521 Y27.181 E41.88656
G1 X138.165 Y27.600 E41.90023
G1 X138.282 Y27.635 E41.90240
G1 X255.818 Y27.641 E43.99192
G1 X255.933 Y27.608 E43.99404
G1 X256.592 Y27.188 E44.00794
G1 X256.877 Y27.038 E44.01366
G1 X257.631 Y26.715 E44.02825
G1 X257.936 Y26.612 E44.03396
G1 X258.732 Y26.415 E44.04856
G1 X259.050 Y26.363 E44.05427
G1 X259.868 Y26.295 E44.06886
G1 X260.189 Y26.295 E44.07458
G1 X261.007 Y26.360 E44.08917
G1 X261.325 Y26.412 E44.09489
G1 X262.122 Y26.607 E44.10948
G1 X262.427 Y26.709 E44.11519
G1 X263.182 Y27.031 E44.12979
G1 X263.467 Y27.180 E44.13550
G1 X264.134 Y27.602 E44.14953
G1 X264.248 Y27.635 E44.15164
G1 X265.186 Y27.635 E44.16832
G1 X267.517 Y29.966 E44.22692
G1 X267.517 Y105.263 E45.56553
G1 X265.186 Y107.594 E45.62413
G1 X264.247 Y107.594 E45.64083
G1 X264.132 Y107.627 E45.64294
G1 X263.469 Y108.047 E45.65690
G1 X263.185 Y108.196 E45.66260
G1 X262.431 Y108.517 E45.67717
G1 X262.127 Y108.619 E45.68287
G1 X261.331 Y108.815 E45.69744
G1 X261.015 Y108.866 E45.70315
G1 X260.198 Y108.932 E45.71771
G1 X259.877 Y108.932 E45.72342
G1 X259.060 Y108.866 E45.73799
G1 X258.743 Y108.815 E45.74369
G1 X257.948 Y108.619 E45.75826
G1 X257.643 Y108.517 E45.76396
G1 X256.889 Y108.196 E45.77853
G1 X256.605 Y108.046 E45.78424
G1 X255.942 Y107.627 E45.79819
G1 X255.828 Y107.594 E45.80030
G1 X138.280 Y107.594 E47.89005
G1 X138.163 Y107.628 E47.89221
G1 X137.518 Y108.048 E47.90589
G1 X137.229 Y108.204 E47.91173
G1 X136.468 Y108.536 E47.92649
G1 X136.158 Y108.643 E47.93232
G1 X135.353 Y108.846 E47.94708
G1 X135.029 Y108.900 E47.95292
G1 X134.201 Y108.968 E47.96768
G1 X133.873 Y108.968 E47.97352
G1 X133.046 Y108.900 E47.98828
G1 X132.722 Y108.846 E47.99412
G1 X131.917 Y108.643 E48.00888
G1 X131.606 Y108.536 E48.01471
G1 X130.845 Y108.204 E48.02948
G1 X130.556 Y108.048 E48.03531
G1 X129.912 Y107.628 E48.04899
G1 X129.795 Y107.594 E48.05115
G1 X125.189 Y107.594 E48.13304
G1 X122.858 Y105.263 E48.19164
G1 X122.858 Y30.026 E49.52918
G1 X123.277 Y30.140 F6000.000
G1 X125.363 Y28.054 E49.58162 F1440.000
G1 X129.926 Y28.054 E49.66275
G1 X130.058 Y28.009 E49.66523
G1 X132.301 Y26.541 E49.71289
G1 X132.708 Y26.761 E49.72112 F1440.000
G1 X132.846 Y26.785 E49.72360
G1 X133.096 Y26.743 E49.72811
G1 X133.890 Y26.677 E49.74227
G1 X134.184 Y26.677 E49.74750
G1 X134.978 Y26.743 E49.76166
G1 X135.268 Y26.791 E49.76689
G1 X136.041 Y26.986 E49.78105
G1 X136.319 Y27.082 E49.78628
G1 X137.049 Y27.401 E49.80044
G1 X137.307 Y27.541 E49.80567
G1 X138.017 Y28.009 E49.82078
G1 X138.149 Y28.054 E49.82326
G1 X255.952 Y28.060 E51.91753
G1 X256.081 Y28.016 E51.91996
G1 X256.803 Y27.551 E51.93523
G1 X257.057 Y27.416 E51.94034
G1 X257.781 Y27.106 E51.95433
G1 X258.053 Y27.015 E51.95945
G1 X258.817 Y26.825 E51.97344
G1 X259.101 Y26.779 E51.97855
G1 X259.885 Y26.714 E51.99254
G1 X260.173 Y26.714 E51.99765
G1 X260.957 Y26.776 E52.01165
G1 X261.241 Y26.822 E52.01676
G1 X262.006 Y27.010 E52.03075
G1 X262.278 Y27.101 E52.03586
G1 X263.003 Y27.410 E52.04986
G1 X263.257 Y27.543 E52.05497
G1 X263.985 Y28.011 E52.07034
G1 X264.114 Y28.054 E52.07276
G1 X265.012 Y28.054 E52.08873
G1 X267.098 Y30.140 E52.14117
G1 X267.098 Y105.089 E53.47361
G1 X265.012 Y107.175 E53.52605
G1 X264.113 Y107.175 E53.54203
G1 X263.984 Y107.218 E53.54445
G1 X263.259 Y107.684 E53.55976
G1 X263.005 Y107.817 E53.56486
G1 X262.283 Y108.125 E53.57883
G1 X262.010 Y108.216 E53.58393
G1 X261.247 Y108.404 E53.59790
G1 X260.964 Y108.450 E53.60301
G1 X260.181 Y108.514 E53.61697
G1 X259.894 Y108.514 E53.62208
G1 X259.111 Y108.450 E53.63605
G1 X258.827 Y108.404 E53.64115
G1 X258.065 Y108.216 E53.65512
G1 X257.792 Y108.125 E53.66022
G1 X257.069 Y107.817 E53.67419
G1 X256.815 Y107.683 E53.67930
G1 X256.091 Y107.218 E53.69460
G1 X255.962 Y107.175 E53.69702
G1 X138.146 Y107.175 E55.79152
G1 X138.014 Y107.220 E55.79400
G1 X137.304 Y107.687 E55.80911
G1 X137.046 Y107.827 E55.81433
G1 X136.317 Y108.146 E55.82848
G1 X136.039 Y108.241 E55.83370
G1 X135.267 Y108.435 E55.84785
G1 X134.977 Y108.484 E55.85307
G1 X134.184 Y108.549 E55.86722
G1 X133.891 Y108.549 E55.87244
G1 X133.097 Y108.484 E55.88659
G1 X132.808 Y108.435 E55.89181
G1 X132.036 Y108.241 E55.90596
G1 X131.758 Y108.146 E55.91118
G1 X131.029 Y107.827 E55.92533
G1 X130.770 Y107.688 E55.93055
G1 X130.060 Y107.220 E55.94567
G1 X129.928 Y107.175 E55.94814
G1 X125.363 Y107.175 E56.02931
G1 X123.277 Y105.089 E56.08175
G1 X123.277 Y30.200 E57.41312
G1 X123.696 Y30.313 F6000.000
G1 X125.536 Y28.473 E57.45939 F1440.000
G1 X130.070 Y28.473 E57.53998
G1 X130.202 Y28.428 E57.54247
G1 X130.343 Y28.317 E57.54566
G1 X132.321 Y27.028 E57.58763
G1 X132.647 Y27.204 E57.59421
G1 X132.803 Y27.224 E57.59701 F1440.000
G1 X133.148 Y27.159 E57.60326
G1 X133.908 Y27.096 E57.61680
G1 X134.167 Y27.096 E57.62142
G1 X134.747 Y27.144 E57.63176
G1 X135.182 Y27.201 E57.63957
G1 X135.921 Y27.388 E57.65312
G1 X136.167 Y27.472 E57.65773
G1 X136.865 Y27.778 E57.67128
G1 X137.093 Y27.901 E57.67589
G1 X137.873 Y28.428 E57.69262
G1 X138.005 Y28.473 E57.69510
G1 X256.092 Y28.479 E59.79442
G1 X256.222 Y28.435 E59.79685
G1 X256.378 Y28.317 E59.80033
G1 X257.013 Y27.913 E59.81372
G1 X257.238 Y27.795 E59.81823
G1 X257.930 Y27.498 E59.83162
G1 X258.171 Y27.417 E59.83613
G1 X258.902 Y27.236 E59.84952
G1 X259.152 Y27.195 E59.85403
G1 X259.903 Y27.133 E59.86742
G1 X260.156 Y27.133 E59.87193
G1 X260.907 Y27.193 E59.88532
G1 X261.158 Y27.233 E59.88984
G1 X261.889 Y27.413 E59.90323
G1 X262.130 Y27.493 E59.90774
G1 X262.823 Y27.788 E59.92113
G1 X263.047 Y27.906 E59.92564
G1 X263.684 Y28.309 E59.93902
G1 X263.845 Y28.430 E59.94260
G1 X263.974 Y28.473 E59.94502
G1 X264.839 Y28.473 E59.96040
G1 X266.679 Y30.313 E60.00667
G1 X266.679 Y104.916 E61.33293
G1 X264.839 Y106.756 E61.37920
G1 X263.973 Y106.756 E61.39459
G1 X263.844 Y106.799 E61.39701
G1 X263.685 Y106.918 E61.40054
G1 X263.050 Y107.321 E61.41391
G1 X262.826 Y107.438 E61.41841
G1 X262.134 Y107.733 E61.43178
G1 X261.894 Y107.813 E61.43628
G1 X261.163 Y107.994 E61.44965
G1 X260.913 Y108.034 E61.45415
G1 X260.164 Y108.095 E61.46752
G1 X259.911 Y108.095 E61.47202
G1 X259.161 Y108.034 E61.48539
G1 X258.911 Y107.993 E61.48990
G1 X258.181 Y107.813 E61.50326
G1 X257.941 Y107.733 E61.50777
G1 X257.249 Y107.438 E61.52114
G1 X257.025 Y107.320 E61.52564
G1 X256.390 Y106.918 E61.53900
G1 X256.231 Y106.799 E61.54253
G1 X256.102 Y106.756 E61.54496
G1 X138.003 Y106.756 E63.64449
G1 X137.871 Y106.801 E63.64696
G1 X137.090 Y107.327 E63.66370
