; generated by Slic3r 1.2.9 on 2016-06-06 at 10:38:27

; external perimeters extrusion width = 0.40mm
; perimeters extrusion width = 0.67mm
; infill extrusion width = 0.67mm
; solid infill extrusion width = 0.67mm
; top infill extrusion width = 0.67mm
; support material extrusion width = 0.40mm

M107
M190 S60 ; set bed temperature
M104 S215 ; set temperature
G28 ; home all axes\
M203 X192 Y208 Z3 ; Speed limits to minimize skipped steps when moving really fast courtesy of forum.lulzbot.com user 1013
G1 Z5 F5000 ; lift nozzle

M109 S215 ; wait for temperature to be reached
G21 ; set units to millimeters
G90 ; use absolute coordinates
M82 ; use absolute distances for extrusion
G92 E0
G1 Z0.300 F6000.000
G1 X119.830 Y32.438 F6000.000
G1 X120.978 Y30.329 E0.04269 F1440.000
G1 X122.752 Y28.710 E0.08537
G1 X124.956 Y27.759 E0.12806
G1 X126.689 Y27.549 E0.15909
G1 X251.189 Y27.549 E2.37243
G1 X253.557 Y27.946 E2.41511
G1 X255.666 Y29.095 E2.45780 F1440.000
G1 X257.285 Y30.868 E2.50049
G1 X258.236 Y33.073 E2.54317
G1 X258.446 Y34.806 E2.57421
G1 X258.446 Y103.206 E3.79021
G1 X258.049 Y105.574 E3.83289
G1 X256.900 Y107.683 E3.87558
G1 X255.127 Y109.301 E3.91827
G1 X252.922 Y110.252 E3.96095
G1 X251.189 Y110.462 E3.99199
G1 X126.689 Y110.462 E6.20532
G1 X124.321 Y110.065 E6.24801
G1 X122.212 Y108.917 E6.29069
G1 X120.594 Y107.143 E6.33338
G1 X119.643 Y104.939 E6.37606
G1 X119.433 Y103.206 E6.40710
G1 X119.433 Y34.806 E7.62310
G1 X119.820 Y32.497 E7.66472
G1 X120.238 Y32.569 F6000.000
G1 X120.249 Y32.510 E7.66580 F1440.000
G1 X121.394 Y30.480 E7.70722
G1 X123.154 Y28.953 E7.74865
G1 X125.325 Y28.106 E7.79008
G1 X126.689 Y27.968 E7.81446
G1 X251.189 Y27.968 E10.02779
G1 X253.485 Y28.365 E10.06922
G1 X255.515 Y29.510 E10.11065 F1440.000
G1 X257.042 Y31.270 E10.15208
G1 X257.889 Y33.441 E10.19350
G1 X258.027 Y34.806 E10.21789
G1 X258.027 Y103.206 E11.43389
G1 X257.630 Y105.502 E11.47531
G1 X256.485 Y107.532 E11.51674
G1 X254.725 Y109.059 E11.55817
G1 X252.554 Y109.906 E11.59960
G1 X251.189 Y110.044 E11.62398
G1 X126.689 Y110.044 E13.83731
G1 X124.393 Y109.646 E13.87874
G1 X122.363 Y108.501 E13.92017
G1 X120.836 Y106.741 E13.96160
G1 X119.989 Y104.570 E14.00302
G1 X119.851 Y103.206 E14.02741
G1 X119.851 Y34.806 E15.24341
G1 X120.228 Y32.628 E15.28269
G1 X120.646 Y32.703 F6000.000
G1 X120.667 Y32.584 E15.28484 F1440.000
G1 X121.809 Y30.636 E15.32497
G1 X123.554 Y29.205 E15.36510
G1 X126.689 Y28.387 E15.42271
G1 X251.189 Y28.387 E17.63604
G1 X253.411 Y28.784 E17.67617
G1 X255.359 Y29.925 E17.71630 F1440.000
G1 X256.790 Y31.670 E17.75643
G1 X257.608 Y34.806 E17.81403
G1 X257.608 Y103.206 E19.03003
G1 X257.211 Y105.428 E19.07016
G1 X256.070 Y107.375 E19.11029
G1 X254.325 Y108.807 E19.15042
G1 X251.189 Y109.625 E19.20802
G1 X126.689 Y109.625 E21.42135
G1 X124.467 Y109.228 E21.46148
G1 X122.520 Y108.086 E21.50161
G1 X121.088 Y106.341 E21.54174
G1 X120.270 Y103.206 E21.59934
G1 X120.270 Y34.806 E22.81534
G1 X120.635 Y32.762 E22.85225
G1 E21.85225 F1500.00000
G92 E0
G1 X126.889 Y35.006 F6000.000
G1 E1.00000 F1500.00000
G1 X250.989 Y35.006 E2.76770 F480.000
G1 X250.989 Y103.006 E3.73630
G1 X126.889 Y103.006 E5.50399 F480.000
G1 X126.889 Y35.066 E6.47174
G1 X127.236 Y35.206 F6000.000
G1 X127.266 Y35.383 F6000.000
G1 X250.612 Y35.383 E8.66455 F960.000
G1 X250.612 Y102.629 E9.86003
G1 X127.266 Y102.629 E12.05283 F960.000
G1 X127.266 Y35.443 E13.24724
G1 X127.685 Y35.802 F6000.000
G1 X250.193 Y35.802 E15.42516 F960.000
G1 X250.193 Y102.210 E16.60574
G1 X127.685 Y102.210 E18.78366 F960.000
G1 X127.685 Y35.862 E19.96317
G1 X128.104 Y36.221 F6000.000
G1 X249.774 Y36.221 E22.12619 F960.000
G1 X249.774 Y101.791 E23.29188
G1 X128.104 Y101.791 E25.45491 F960.000
G1 X128.104 Y36.281 E26.61953
G1 X164.650 Y36.640 F6000.000
G1 X249.355 Y36.640 E28.12539 F960.000
G1 X249.355 Y101.372 E29.27619
G1 X128.523 Y101.372 E31.42432 F960.000
G1 X128.523 Y36.640 E32.57511
G1 X164.590 Y36.640 E33.21631
G1 X128.749 Y100.928 F6000.000
G1 X128.967 Y101.146 E33.22180 F720.000
G1 X129.561 Y101.146 E33.23240
G1 X128.749 Y100.334 E33.25288
G1 X128.749 Y99.739 E33.26348
G1 X130.156 Y101.146 E33.29894
G1 X130.750 Y101.146 E33.30954
G1 X128.749 Y99.145 E33.36000
G1 X128.749 Y98.551 E33.37060
G1 X131.344 Y101.146 E33.43604
G1 X131.938 Y101.146 E33.44664
G1 X128.749 Y97.957 E33.52707
G1 X128.749 Y97.362 E33.53767
G1 X132.533 Y101.146 E33.63309
G1 X133.127 Y101.146 E33.64369
G1 X128.749 Y96.768 E33.75410
G1 X128.749 Y96.174 E33.76470
G1 X133.721 Y101.146 E33.89010
G1 X134.315 Y101.146 E33.90070
G1 X128.749 Y95.580 E34.04109
G1 X128.749 Y94.985 E34.05168
G1 X134.910 Y101.146 E34.20706
G1 X135.504 Y101.146 E34.21766
G1 X128.749 Y94.391 E34.38802
G1 X128.749 Y93.797 E34.39862
G1 X136.098 Y101.146 E34.58397
G1 X136.693 Y101.146 E34.59457
G1 X128.749 Y93.202 E34.79491
G1 X128.749 Y92.608 E34.80551
G1 X137.287 Y101.146 E35.02084
G1 X137.881 Y101.146 E35.03144
G1 X128.749 Y92.014 E35.26176
G1 X128.749 Y91.420 E35.27236
G1 X138.475 Y101.146 E35.51767
G1 X139.070 Y101.146 E35.52826
G1 X128.749 Y90.825 E35.78856
G1 X128.749 Y90.231 E35.79916
G1 X139.664 Y101.146 E36.07444
G1 X140.258 Y101.146 E36.08504
G1 X128.749 Y89.637 E36.37531
G1 X128.749 Y89.043 E36.38591
G1 X140.852 Y101.146 E36.69117
G1 X141.447 Y101.146 E36.70177
G1 X128.749 Y88.448 E37.02202
G1 X128.749 Y87.854 E37.03262
G1 X142.041 Y101.146 E37.36786
G1 X142.635 Y101.146 E37.37846
G1 X128.749 Y87.260 E37.72868
G1 X128.749 Y86.665 E37.73928
G1 X143.230 Y101.146 E38.10450
G1 X143.824 Y101.146 E38.11509
G1 X128.749 Y86.071 E38.49530
G1 X128.749 Y85.477 E38.50590
G1 X144.418 Y101.146 E38.90109
G1 X145.012 Y101.146 E38.91169
G1 X128.749 Y84.883 E39.32187
G1 X128.749 Y84.288 E39.33247
G1 X145.607 Y101.146 E39.75764
G1 X146.201 Y101.146 E39.76823
G1 X128.749 Y83.694 E40.20839
G1 X128.749 Y83.100 E40.21899
G1 X146.795 Y101.146 E40.67414
G1 X147.389 Y101.146 E40.68473
G1 X128.749 Y82.506 E41.15487
G1 X128.749 Y81.911 E41.16547
G1 X147.984 Y101.146 E41.65059
G1 X148.578 Y101.146 E41.66119
G1 X128.749 Y81.317 E42.16130
G1 X128.749 Y80.723 E42.17190
G1 X149.172 Y101.146 E42.68700
G1 X149.767 Y101.146 E42.69760
G1 X128.749 Y80.128 E43.22769
G1 X128.749 Y79.534 E43.23829
G1 X150.361 Y101.146 E43.78336
G1 X150.955 Y101.146 E43.79396
G1 X128.749 Y78.940 E44.35403
G1 X128.749 Y78.346 E44.36463
G1 X151.549 Y101.146 E44.93968
G1 X152.144 Y101.146 E44.95028
G1 X128.749 Y77.751 E45.54032
G1 X128.749 Y77.157 E45.55092
G1 X152.738 Y101.146 E46.15595
G1 X153.332 Y101.146 E46.16655
G1 X128.749 Y76.563 E46.78657
G1 X128.749 Y75.969 E46.79717
G1 X153.926 Y101.146 E47.43218
G1 X154.521 Y101.146 E47.44277
G1 X128.749 Y75.374 E48.09277
G1 X128.749 Y74.780 E48.10337
G1 X155.115 Y101.146 E48.76836
G1 X155.709 Y101.146 E48.77895
G1 X128.749 Y74.186 E49.45893
G1 X128.749 Y73.592 E49.46953
G1 X156.303 Y101.146 E50.16449
G1 X156.898 Y101.146 E50.17509
G1 X128.749 Y72.997 E50.88504
G1 X128.749 Y72.403 E50.89564
G1 X157.492 Y101.146 E51.62058
G1 X158.086 Y101.146 E51.63117
G1 X128.749 Y71.809 E52.37110
G1 X128.749 Y71.214 E52.38170
G1 X158.681 Y101.146 E53.13662
G1 X159.275 Y101.146 E53.14722
G1 X128.749 Y70.620 E53.91712
G1 X128.749 Y70.026 E53.92772
G1 X159.869 Y101.146 E54.71261
G1 X160.463 Y101.146 E54.72321
G1 X128.749 Y69.432 E55.52309
G1 X128.749 Y68.837 E55.53369
G1 X161.058 Y101.146 E56.34856
G1 X161.652 Y101.146 E56.35916
G1 X128.749 Y68.243 E57.18902
G1 X128.749 Y67.649 E57.19962
G1 X162.246 Y101.146 E58.04447
G1 X162.840 Y101.146 E58.05506
G1 X128.749 Y67.055 E58.91490
G1 X128.749 Y66.460 E58.92550
G1 X163.435 Y101.146 E59.80032
G1 X164.029 Y101.146 E59.81092
G1 X128.749 Y65.866 E60.70073
G1 X128.749 Y65.272 E60.71133
G1 X164.623 Y101.146 E61.61613
G1 X165.218 Y101.146 E61.62673
G1 X128.749 Y64.677 E62.54652
G1 X128.749 Y64.083 E62.55712
G1 X165.812 Y101.146 E63.49190
G1 X166.406 Y101.146 E63.50250
G1 X128.749 Y63.489 E64.45227
G1 X128.749 Y62.895 E64.46286
G1 X167.000 Y101.146 E65.42762
G1 X167.595 Y101.146 E65.43822
G1 X128.749 Y62.300 E66.41796
G1 X128.749 Y61.706 E66.42856
G1 X168.189 Y101.146 E67.42329
G1 X168.783 Y101.146 E67.43389
G1 X128.749 Y61.112 E68.44361
G1 X128.749 Y60.518 E68.45421
G1 X169.377 Y101.146 E69.47892
G1 X169.972 Y101.146 E69.48952
G1 X128.749 Y59.923 E70.52922
G1 X128.749 Y59.329 E70.53982
G1 X170.566 Y101.146 E71.59450
G1 X171.160 Y101.146 E71.60510
G1 X128.749 Y58.735 E72.67478
G1 X128.749 Y58.140 E72.68538
G1 X171.755 Y101.146 E73.77004
G1 X172.349 Y101.146 E73.78064
G1 X128.749 Y57.546 E74.88029
G1 X128.749 Y56.952 E74.89089
G1 X172.943 Y101.146 E76.00553
G1 X173.537 Y101.146 E76.01613
G1 X128.749 Y56.358 E77.14576
G1 X128.749 Y55.763 E77.15636
G1 X174.132 Y101.146 E78.30097
G1 X174.726 Y101.146 E78.31157
G1 X128.749 Y55.169 E79.47118
G1 X128.749 Y54.575 E79.48178
G1 X175.320 Y101.146 E80.65637
G1 X175.914 Y101.146 E80.66697
G1 X128.749 Y53.981 E81.85655
G1 X128.749 Y53.386 E81.86715
G1 X176.509 Y101.146 E83.07172
G1 X177.103 Y101.146 E83.08232
G1 X128.749 Y52.792 E84.30188
G1 X128.749 Y52.198 E84.31248
G1 X177.697 Y101.146 E85.54703
G1 X178.292 Y101.146 E85.55763
G1 X128.749 Y51.603 E86.80717
G1 X128.749 Y51.009 E86.81776
G1 X178.886 Y101.146 E88.08229
G1 X179.480 Y101.146 E88.09289
G1 X128.749 Y50.415 E89.37240
G1 X128.749 Y49.821 E89.38300
G1 X180.074 Y101.146 E90.67750
G1 X180.669 Y101.146 E90.68810
G1 X128.749 Y49.226 E91.99759
G1 X128.749 Y48.632 E92.00819
G1 X181.263 Y101.146 E93.33267
G1 X181.857 Y101.146 E93.34327
G1 X128.749 Y48.038 E94.68274
G1 X128.749 Y47.444 E94.69334
G1 X182.451 Y101.146 E96.04779
G1 X183.046 Y101.146 E96.05839
G1 X128.749 Y46.849 E97.42784
G1 X128.749 Y46.255 E97.43844
G1 X183.640 Y101.146 E98.82287
G1 X184.234 Y101.146 E98.83347
G1 X128.749 Y45.661 E100.23289
G1 X128.749 Y45.066 E100.24349
G1 X184.829 Y101.146 E101.65790
G1 X185.423 Y101.146 E101.66850
G1 X128.749 Y44.472 E103.09790
G1 X128.749 Y43.878 E103.10850
G1 X186.017 Y101.146 E104.55289
G1 X186.611 Y101.146 E104.56348
G1 X128.749 Y43.284 E106.02286
G1 X128.749 Y42.689 E106.03346
G1 X187.206 Y101.146 E107.50782
G1 X187.800 Y101.146 E107.51842
G1 X128.749 Y42.095 E109.00778
G1 X128.749 Y41.501 E109.01838
G1 X188.394 Y101.146 E110.52272
G1 X188.988 Y101.146 E110.53332
G1 X128.749 Y40.907 E112.05265
G1 X128.749 Y40.312 E112.06324
G1 X189.583 Y101.146 E113.59756
G1 X190.177 Y101.146 E113.60816
G1 X128.749 Y39.718 E115.15747
G1 X128.749 Y39.124 E115.16807
G1 X190.771 Y101.146 E116.73236
G1 X191.366 Y101.146 E116.74296
G1 X128.749 Y38.529 E118.32225
G1 X128.749 Y37.935 E118.33285
G1 X191.960 Y101.146 E119.92712
G1 X192.554 Y101.146 E119.93772
G1 X128.749 Y37.341 E121.54698
G1 X128.869 Y36.866 E121.55571
G1 X193.148 Y101.146 E123.17696
G1 X193.743 Y101.146 E123.18756
G1 X129.463 Y36.866 E124.80880
G1 X130.057 Y36.866 E124.81940
G1 X194.337 Y101.146 E126.44064
G1 X194.931 Y101.146 E126.45124
G1 X130.651 Y36.866 E128.07248
G1 X131.246 Y36.866 E128.08308
G1 X195.525 Y101.146 E129.70432
G1 X196.120 Y101.146 E129.71492
G1 X131.840 Y36.866 E131.33616
G1 X132.434 Y36.866 E131.34676
G1 X196.714 Y101.146 E132.96801
G1 X197.308 Y101.146 E132.97860
G1 X133.028 Y36.866 E134.59985
G1 X133.623 Y36.866 E134.61045
G1 X197.902 Y101.146 E136.23169
G1 X198.497 Y101.146 E136.24229
G1 X134.217 Y36.866 E137.86353
G1 X134.811 Y36.866 E137.87413
G1 X199.091 Y101.146 E139.49537
G1 X199.685 Y101.146 E139.50597
G1 X135.406 Y36.866 E141.12721
G1 X136.000 Y36.866 E141.13781
G1 X200.280 Y101.146 E142.75905
G1 X200.874 Y101.146 E142.76965
G1 X136.594 Y36.866 E144.39089
G1 X137.188 Y36.866 E144.40149
G1 X201.468 Y101.146 E146.02274
G1 X202.062 Y101.146 E146.03333
G1 X137.783 Y36.866 E147.65458
G1 X138.377 Y36.866 E147.66518
G1 X202.657 Y101.146 E149.28642
G1 X203.251 Y101.146 E149.29702
G1 X138.971 Y36.866 E150.91826
G1 X139.565 Y36.866 E150.92886
G1 X203.845 Y101.146 E152.55010
G1 X204.439 Y101.146 E152.56070
G1 X140.160 Y36.866 E154.18194
G1 X140.754 Y36.866 E154.19254
G1 X205.034 Y101.146 E155.81378
G1 X205.628 Y101.146 E155.82438
G1 X141.348 Y36.866 E157.44563
G1 X141.943 Y36.866 E157.45622
G1 X206.222 Y101.146 E159.07747
G1 X206.817 Y101.146 E159.08807
G1 X142.537 Y36.866 E160.70931
G1 X143.131 Y36.866 E160.71991
G1 X207.411 Y101.146 E162.34115
G1 X208.005 Y101.146 E162.35175
G1 X143.725 Y36.866 E163.97299
G1 X144.320 Y36.866 E163.98359
G1 X208.599 Y101.146 E165.60483
G1 X209.194 Y101.146 E165.61543
G1 X144.914 Y36.866 E167.23667
G1 X145.508 Y36.866 E167.24727
G1 X209.788 Y101.146 E168.86852
G1 X210.382 Y101.146 E168.87911
G1 X146.102 Y36.866 E170.50036
G1 X146.697 Y36.866 E170.51096
G1 X210.976 Y101.146 E172.13220
G1 X211.571 Y101.146 E172.14280
G1 X147.291 Y36.866 E173.76404
G1 X147.885 Y36.866 E173.77464
G1 X212.165 Y101.146 E175.39588
G1 X212.759 Y101.146 E175.40648
G1 X148.479 Y36.866 E177.02772
G1 X149.074 Y36.866 E177.03832
G1 X213.354 Y101.146 E178.65956
G1 X213.948 Y101.146 E178.67016
G1 X149.668 Y36.866 E180.29140
G1 X150.262 Y36.866 E180.30200
G1 X214.542 Y101.146 E181.92325
G1 X215.136 Y101.146 E181.93384
G1 X150.857 Y36.866 E183.55509
G1 X151.451 Y36.866 E183.56569
G1 X215.731 Y101.146 E185.18693
G1 X216.325 Y101.146 E185.19753
G1 X152.045 Y36.866 E186.81877
G1 X152.639 Y36.866 E186.82937
G1 X216.919 Y101.146 E188.45061
G1 X217.513 Y101.146 E188.46121
G1 X153.234 Y36.866 E190.08245
G1 X153.828 Y36.866 E190.09305
G1 X218.108 Y101.146 E191.71429
G1 X218.702 Y101.146 E191.72489
G1 X154.422 Y36.866 E193.34614
G1 X155.016 Y36.866 E193.35673
G1 X219.296 Y101.146 E194.97798
G1 X219.891 Y101.146 E194.98858
G1 X155.611 Y36.866 E196.60982
G1 X156.205 Y36.866 E196.62042
G1 X220.485 Y101.146 E198.24166
G1 X221.079 Y101.146 E198.25226
G1 X156.799 Y36.866 E199.87350
G1 X157.394 Y36.866 E199.88410
G1 X221.673 Y101.146 E201.50534
G1 X222.268 Y101.146 E201.51594
G1 X157.988 Y36.866 E203.13718
G1 X158.582 Y36.866 E203.14778
G1 X222.862 Y101.146 E204.76903
G1 X223.456 Y101.146 E204.77962
G1 X159.176 Y36.866 E206.40087
G1 X159.771 Y36.866 E206.41146
G1 X224.050 Y101.146 E208.03271
G1 X224.645 Y101.146 E208.04331
G1 X160.365 Y36.866 E209.66455
G1 X160.959 Y36.866 E209.67515
G1 X225.239 Y101.146 E211.29639
G1 X225.833 Y101.146 E211.30699
G1 X161.553 Y36.866 E212.92823
G1 X162.148 Y36.866 E212.93883
G1 X226.428 Y101.146 E214.56007
G1 X227.022 Y101.146 E214.57067
G1 X162.742 Y36.866 E216.19191
G1 X163.336 Y36.866 E216.20251
G1 X227.616 Y101.146 E217.82376
G1 X228.210 Y101.146 E217.83435
G1 X163.931 Y36.866 E219.45560
G1 X164.525 Y36.866 E219.46620
G1 X228.805 Y101.146 E221.08744
G1 X229.399 Y101.146 E221.09804
G1 X165.119 Y36.866 E222.71928
G1 X165.713 Y36.866 E222.72988
G1 X229.993 Y101.146 E224.35112
G1 X230.587 Y101.146 E224.36172
G1 X166.308 Y36.866 E225.98296
G1 X166.902 Y36.866 E225.99356
G1 X231.182 Y101.146 E227.61480
G1 X231.776 Y101.146 E227.62540
G1 X167.496 Y36.866 E229.24665
G1 X168.090 Y36.866 E229.25724
G1 X232.370 Y101.146 E230.87849
G1 X232.965 Y101.146 E230.88909
G1 X168.685 Y36.866 E232.51033
G1 X169.279 Y36.866 E232.52093
G1 X233.559 Y101.146 E234.14217
G1 X234.153 Y101.146 E234.15277
G1 X169.873 Y36.866 E235.77401
G1 X170.468 Y36.866 E235.78461
G1 X234.747 Y101.146 E237.40585
G1 X235.342 Y101.146 E237.41645
G1 X171.062 Y36.866 E239.03769
G1 X171.656 Y36.866 E239.04829
G1 X235.936 Y101.146 E240.66953
G1 X236.530 Y101.146 E240.68013
G1 X172.250 Y36.866 E242.30138
G1 X172.845 Y36.866 E242.31197
G1 X237.124 Y101.146 E243.93322
G1 X237.719 Y101.146 E243.94382
G1 X173.439 Y36.866 E245.56506
G1 X174.033 Y36.866 E245.57566
G1 X238.313 Y101.146 E247.19690
G1 X238.907 Y101.146 E247.20750
G1 X174.627 Y36.866 E248.82874
G1 X175.222 Y36.866 E248.83934
G1 X239.501 Y101.146 E250.46058
G1 X240.096 Y101.146 E250.47118
G1 X175.816 Y36.866 E252.09242
G1 X176.410 Y36.866 E252.10302
G1 X240.690 Y101.146 E253.72427
G1 X241.284 Y101.146 E253.73486
G1 X177.005 Y36.866 E255.35611
G1 X177.599 Y36.866 E255.36671
G1 X241.879 Y101.146 E256.98795
G1 X242.473 Y101.146 E256.99855
G1 X178.193 Y36.866 E258.61979
G1 X178.787 Y36.866 E258.63039
G1 X243.067 Y101.146 E260.25163
G1 X243.661 Y101.146 E260.26223
G1 X179.382 Y36.866 E261.88347
